X:1
T:Selections from the Nutcracker Suite
T:Selections from the Nutcracker Suite
%%score { 1 | 2 } 3 4 5
L:1/8
Q:1/4=115
M:2/4
K:Bb
V:1 treble nm="Piano" snm="Pno."
V:2 bass 
V:3 treble nm="Flute" snm="Fl."
V:4 treble transpose=-2 nm="Clarinet" snm="Cl."
V:5 alto nm="Viola" snm="Vla."
V:1
 z4 | z4 | z4 | z4 | z4 | z4 | z4 | z4 | z4 | z4 | z4 | z4 | z4 | z4 | z4 | z4 | z4 | z4 | z4 | %19
 z4 | z4 | z4 | z4 | z4 | z4 | z4 | z4 | z4 | z4 | z4 | z4 | z4 | z4 | z4 | z4 | z4 | z4 | z4 | %38
 z4 | z4 | z4 | z4 | z4 | z4 | z4 | z4 | z4 | z4 | z4 | z4 | z4 | z4 | z4 | z4 | z4 | z4 | z4 | %57
 z4 | z4 | z4 | z4 | z4 | z4 | z4 | z4 | z4 | z4 | z4 | z4 | z4 | z4 | z4 | z4 | z4 | z4 | z4 | %76
 z4 | z4 | z4 | z4 | z4 | z4 | z4 | z4 | z4 | z4 | z4 | z4 | z4 | z4 | z4 | z4 | z4 | z4 | z4 | %95
 z4 | z4 | z4 | z4 | z4 | z4 | z4 | z4 | z4 | z4 | z4 | z4 | z4 | z4 | z4 | z4 | z4 | z4 | z4 | %114
 z4 | z4 | z4 | z4 | z4 | z4 | z4 | z4 | z4 | z4 | z4 | z4 | z4 | z4 | z4 | z4 | z4 | z4 | z4 | %133
 z4 | z4 | z4 | z4 | z4 | z4 | z4 | z4 | z4 | z4 | z4 | z4 | z4 | z4 | z4 | z4 | z4 | z4 | z4 | %152
 z4 | z4 | z4 | z4 | z4 | z4 | z4 | z4 | z4 | z4 | z4 | z4 | z4 | z4 | z4 | z4 | z4 | z4 | z4 | %171
 z4 | z4 | z4 | z4 | z4 | z4 | z4 | z4 | z4 | z4 |][K:G][M:4/4][Q:1/4=120] z8 | z8 | z8 | z8 | z8 | %186
 z8 | z8 | z8 | z8 | z8 | z8 | z8 | z8 | z8 | z8 | z8 | z8 | z8 | z8 | z8 | z8 | z8 | z8 | z8 | %205
 z8 | z8 | z8 | z8 | z8 | z8 | z8 | z8 | z8 | z8 | z8 | z8 | z8 | z8 | z8 | z8 | z8 | z8 | z8 | %224
 z8 | z8 | z8 | z8 | z8 | z8 | z8 | z8 | z8 | z8 | z8 | z8 | z8 | z8 | z8 | z8 | z8 | z8 | z8 | %243
 z8 | z8 | z8 | z8 | z8 | z8 | z8 | z8 | z8 | z8 | z8 | z8 | z8 | z8 | z8 | z8 | z8 | z8 | z8 | %262
 z8 | z8 | z8 | z8 | z8 | z8 | z8 |][K:G][M:2/4][Q:1/4=60] z4 | z4 | z4 | z4 | %273
 z!mf! .[bg']/.e'/ .[bg'].[af'] | .[f^d'].[ge'] .[^g=d']/.[gd']/.[gd'] | %275
 .[g^c']/.[gc']/.[gc'] .[f=c']/.[fc']/.[fc'] | .b/.[ge']/.c'/.[fe']/ .b z | %277
 z!<(! .[cg]/.e/ .[cg].[cf] | .[^dfc']!<)!.[egb]!f! .[^c'g']/.[c'g']/.[c'g'] | %279
 .[bd'f']/.[bd'f']/.[bd'f'] .[^ae']/.[ae']/.[ae'] | .[b^d']/.f'/.[^ae']/.f'/ .[bd'] z | %281
 z!mf! .[bg']/.e'/ .[bg'].[af'] | .[f^d'].[ge'] .[^g=d']/.[gd']/.[gd'] | %283
 .[g^c']/.[gc']/.[gc'] .[f=c']/.[fc']/.[fc'] | .b/.[ge']/.c'/.[fe']/ .b z | %285
 z .[^ae']/.[f^c']/ .[ae'].[b^d'] | z .[^gd']/.[eb]/ .[gd'].[a^c'] | z .[fc']/.[da]/ .[fc'].[gb] | %288
 z!f! (b/4^d'/4f'/4b'/4 [be']) z |!mf! z/ [eg^c']/ z/ [fa^d']/ z/ [gc'e']/ z/ [ad'f']/ | %290
 z/ [be'g']/ z/ [g^c'e']/ z/ [fb^d']/ z | z4 | z4 | %293
 z/ [eg^c']/ z/ [fa^d']/ z/ [gc'e']/ z/ [ad'f']/ | z/ [be'g']/ z/ [g^c'e']/ z/ [fb^d']/ z | z4 | %296
 z4 |!mf! z/ [eg^c']/ z/ [fa^d']/ z/ [gc'e']/ z | z/ [fa^d']/ z/ [g^c'e']/ z/ [ad'f']/ z | %299
"_cresc." z/ [g^c'e']/ z/ [a^d'f']/ z/ [be'g']/ z/ [be'g']/ | %300
 [=c'e'a']/[c'e'a']/ z/!f! [c'e'a']/ [b^d'f'b'] z/ =d/8f/8a/8c'/8 | %301
 z/ ^d/8f/8a/8b/8 z/ =d/8f/8a/8c'/8 z/ ^d/8f/8a/8b/8 z/ =f/8a/8c'/8e'/8 | %302
 z/ f/8a/8b/8^d'/8 z/ =f/8a/8c'/8e'/8 z/ ^f/8a/8b/8d'/8 z/ a/8c'/8d'/8g'/8 | %303
 z/!8va(! (3b/4^d'/4f'/4 z/ a/8c'/8d'/8g'/8 z/ (3b/4d'/4f'/4 z/ =d'/8f'/8a'/8c''/8 | %304
 z/ ^d'/8f'/8a'/8b'/8 z/ =d'/8f'/8a'/8c''/8 z/ ^d'/8f'/8a'/8b'/8 z!8va)! | %305
 z!mf!!8va(! .[b'g'']/.e''/ .[b'g''].[a'f''] | .[f'^d''].[g'e''] .[^g'=d'']/.[g'd'']/.[g'd''] | %307
 .[g'^c'']/.[g'c'']/.[g'c''] .[f'=c'']/.[f'c'']/.[f'c''] | .b'/.[g'e'']/.c''/.[f'e'']/ .b' z | %309
 z!<(! .[c'g']/.e'/ .[c'g'].[c'f'] | .[^d'f'c'']!<)!.[e'g'b']!f! .[^c''g'']/.[c''g'']/.[c''g''] | %311
 .[b'd''f'']/.[b'd''f'']/.[b'd''f''] .[^a'e'']/.[a'e'']/.[a'e''] | %312
 .[b'^d'']/.f''/.[^a'e'']/.f''/ .[b'd''] z | z!mf! .[b'g'']/.e''/ .[b'g''].[a'f''] | %314
 .[f'^d''].[g'e''] .[^g'=d'']/.[g'd'']/.[g'd''] | %315
 .[g'^c'']/.[g'c'']/.[g'c''] .[f'=c'']/.[f'c'']/.[f'c''] | .b'/.[g'e'']/.c''/.[f'e'']/ .b' z | %317
 z .[^a'e'']/.[f'^c'']/ .[a'e''].[b'^d''] | z .[^g'd'']/.[e'b']/ .[g'd''].[a'^c''] | %319
 z .[f'c'']/.[d'a']/ .[f'c''].[g'b'] | z!f! (b'/4^d''/4f''/4b''/4 [b'e''])!8va)! z |] %321
[K:G][M:2/4][Q:1/4=155] z4 | z4 | z4 | z4 | z4 | z4 | z4 | z4 | z4 | z4 | z4 | z4 | z4 | z4 | z4 | %336
 z4 | z4 | z4 | z4 | z4 | z4 | z4 | z4 | z4 | z4 | z4 | z4 | z4 | z4 | z4 | z4 | z4 | z4 | z4 | %355
 z4 | z4 | z4 | z4 | z4 | z4 | z4 | z4 | z4 | z4 | z4 | z4 | z4 | z4 | z4 | z4 | z4 | z4 | z4 | %374
 z4 | z4 | z4 | z4 | z4 | z4 | z4 | z4 | z4 | z4 | z4 | z4 | z4 | z4 | z4 | z4 | z4 | z4 | z4 | %393
 z4 | z4 | z4 | z4 | z4 | z4 | z4 | z4 | z4 | z4 | z4 | z4 |][K:Bb][M:3/8][Q:3/8=30] z3 | z3 | z3 | %408
 z3 | z3 | z3 | z3 | z3 | z3 | z3 | z3 | z3 | z3 | z3 | z3 | z3 | z3 | z3 | z3 | z3 | z3 | z3 | %427
 z3 | z3 | z3 | z3 | z3 | z3 | z3 | z3 | z3 | z3 | z3 | z3 | z3 | z3 | z3 | z3 | z3 | z3 | z3 | %446
 z3 | z3 | z3 | z3 | z3 | z3 | z3 | z3 | z3 | z3 | z3 | z3 | z3 | z3 | z3 | z3 | z3 | z3 | z3 | %465
 z3 | z3 | z3 | z3 | z3 | z3 | z3 | z3 | z3 | z3 | z3 | z3 | z3 | z3 | z3 | z3 | z3 | z3 | z3 | %484
 z3 | z3 | z3 | z3 | z3 | z3 | z3 | z3 | z3 | z3 | z3 | z3 | z3 | z3 | z3 | z3 | z3 | z3 | z3 | %503
 z3 | z3 | z3 |][K:D][M:3/4][Q:3/4=60] z6 | z6 | z6 | z6 | z6 | z6 | z6 | z6 | z6 | z6 | z6 | z6 | %518
 z6 | z6 | z6 | z6 | z6 | z6 | z6 | z6 | z6 | z6 | z6 | z6 | z6 | z6 | z6 | z6 | z6 | z6 | z6 | %537
 z6 | z6 | z6 | z6 | z6 |: z6 | z6 | z6 | z6 | z6 | z6 | z6 | z6 | z6 | z6 | z6 | z6 |1 z6 | z6 | %556
 z6 | z6 :|2 z6 | z6 || z6 | z6 | z6 | z6 | z6 | z6 | z6 | z6 | z6 | z6 | z6 | z6 | z6 | z6 | z6 | %575
 z6 | z6 | z6 | z6 | z6 | z6 | z6 | z6 | z6 | z6 | z6 | z6 | z6 | z6 | z6 | z6 | z6 | z6 | z6 |: %594
 z6 | z6 | z6 | z6 | z6 | z6 | z6 | z6 | z6 | z6 | z6 | z6 |1 z6 | z6 | z6 | z6 :|2 z6 | z6 || z6 | %613
 z6 | z6 | z6 | z6 | z6 | z6 | z6 | z6 | z6 | z6 | z6 | z6 | z6 | z6 | z6 | z6 | z6 | z6 | z6 | %632
 z6 | z6 | z6 | z6 | z6 | z6 | z6 | z6 | z6 | z6 | z6 | z6 | z6 | z6 | z6 | z6 | z6 | z6 | z6 | %651
 z6 | z6 | z6 | z6 | z6 | z6 | z6 | z6 | z6 | z6 | z6 | z6 | z6 | z6 | z6 | z6 | z6 | z6 | z6 | %670
 z6 | z6 | z6 | z6 | z6 | z6 | z6 | z6 | z6 | z6 | z6 | z6 | z6 | z6 | z6 | z6 | z6 | z6 | z6 | %689
 z6 | z6 | z6 | z6 | z6 | z6 | z6 | z6 | z6 | z6 | z6 | z6 | z6 | z6 | z6 | z6 | z6 | z6 | z6 | %708
 z6 | z6 | z6 | z6 | z6 | z6 | z6 | z6 | z6 | z6 | z6 | z6 | z6 | z6 | z6 | z6 | z6 | z6 | z6 | %727
 z6 | z6 | z6 |: z6 | z6 | z6 | z6 | z6 | z6 | z6 | z6 | z6 | z6 | z6 | z6 |1 z6 | z6 | z6 | z6 :|2 %746
 z6 | z6 || z6 | z6 | z6 | z6 | z6 | z6 | z6 | z6 | z6 | z6 | z6 | z6 | z6 | z6 | z6 | z6 | z6 | %765
 z6 | z6 | z6 | z6 | z6 | z6 | z6 | z6 | z6 | z6 | z6 | z6 | z6 | z6 | z6 | z6 | z6 | z6 | z6 | %784
 z6 | z6 | z6 | z6 | z6 | z6 | z6 | z6 | z6 | z6 | z6 | z6 | z6 | z6 | z6 | z6 | z6 | z6 | z6 | %803
 z6 | z6 | z6 | z6 | z6 | z6 | z6 | z6 | z6 | z6 | z6 | z6 | z6 | z6 | z6 | z6 | z6 | z6 | z6 | %822
 z6 | z6 | z6 | z6 |] %826
V:2
 z4 | z4 | z4 | z4 | z4 | z4 | z4 | z4 | z4 | z4 | z4 | z4 | z4 | z4 | z4 | z4 | z4 | z4 | z4 | %19
 z4 | z4 | z4 | z4 | z4 | z4 | z4 | z4 | z4 | z4 | z4 | z4 | z4 | z4 | z4 | z4 | z4 | z4 | z4 | %38
 z4 | z4 | z4 | z4 | z4 | z4 | z4 | z4 | z4 | z4 | z4 | z4 | z4 | z4 | z4 | z4 | z4 | z4 | z4 | %57
 z4 | z4 | z4 | z4 | z4 | z4 | z4 | z4 | z4 | z4 | z4 | z4 | z4 | z4 | z4 | z4 | z4 | z4 | z4 | %76
 z4 | z4 | z4 | z4 | z4 | z4 | z4 | z4 | z4 | z4 | z4 | z4 | z4 | z4 | z4 | z4 | z4 | z4 | z4 | %95
 z4 | z4 | z4 | z4 | z4 | z4 | z4 | z4 | z4 | z4 | z4 | z4 | z4 | z4 | z4 | z4 | z4 | z4 | z4 | %114
 z4 | z4 | z4 | z4 | z4 | z4 | z4 | z4 | z4 | z4 | z4 | z4 | z4 | z4 | z4 | z4 | z4 | z4 | z4 | %133
 z4 | z4 | z4 | z4 | z4 | z4 | z4 | z4 | z4 | z4 | z4 | z4 | z4 | z4 | z4 | z4 | z4 | z4 | z4 | %152
 z4 | z4 | z4 | z4 | z4 | z4 | z4 | z4 | z4 | z4 | z4 | z4 | z4 | z4 | z4 | z4 | z4 | z4 | z4 | %171
 z4 | z4 | z4 | z4 | z4 | z4 | z4 | z4 | z4 | z4 |][K:G][M:4/4] z8 | z8 | z8 | z8 | z8 | z8 | z8 | %188
 z8 | z8 | z8 | z8 | z8 | z8 | z8 | z8 | z8 | z8 | z8 | z8 | z8 | z8 | z8 | z8 | z8 | z8 | z8 | %207
 z8 | z8 | z8 | z8 | z8 | z8 | z8 | z8 | z8 | z8 | z8 | z8 | z8 | z8 | z8 | z8 | z8 | z8 | z8 | %226
 z8 | z8 | z8 | z8 | z8 | z8 | z8 | z8 | z8 | z8 | z8 | z8 | z8 | z8 | z8 | z8 | z8 | z8 | z8 | %245
 z8 | z8 | z8 | z8 | z8 | z8 | z8 | z8 | z8 | z8 | z8 | z8 | z8 | z8 | z8 | z8 | z8 | z8 | z8 | %264
 z8 | z8 | z8 |[K:treble] z8 | z8 |][K:G][M:2/4] z4 | z4 | z4 | z4 | z .e/.[Bg]/ .e.[ce] | %274
 .[Ac].[^A^c] .[B^e]/.[Be]/.[Be] | .[^Ae]/.[Ae]/.[Ae] .[=A^d]/.[Ad]/.[Ad] | %276
 .[Ge]/.B/.[Ae]/.c/ .[Ge] z | z .E/.G/ .E.^D | .A.G .[e^a]/.[ea]/.[ea] | %279
 .[df^g]/.[dfg]/.[dfg] .[^cf]/.[cf]/.[cf] | .[Bf]/.^d/.f/.F/ .[Bf] z | z .e/.[Bg]/ .e.[ce] | %282
 .[Ac].[^A^c] .[B^e]/.[Be]/.[Be] | .[^Ae]/.[Ae]/.[Ae] .[=A^d]/.[Ad]/.[Ad] | %284
 .[Ge]/.B/.[Ae]/.c/ .[Ge] z | z .[F^c]/.[^Ae]/ .[Fc].[Bf] | z .[EB]/.[^Gd]/ .[EB].[Ae] | %287
 z .[DA]/.[Fc]/ .[DA].[Gd] | z (a/4f/4^d/4B/4 [eg]) z | [EG^c]/ z/ [FA^d]/ z/ [Gce]/ z/ [Adf]/ z/ | %290
 [Beg]/ z/ [G^ce]/ z/ [FB^d]/ z/ z | z4 | z4 | [EG^c]/ z/ [FA^d]/ z/ [Gce]/ z/ [Adf]/ z/ | %294
 [Beg]/ z/ [G^ce]/ z/ [FB^d]/ z/ z | z4 | z4 | [EG^c]/ z/ [FA^d]/ z/ [Gce]/ z/ z | %298
 [FA^d]/ z/ [G^ce]/ z/ [Adf]/ z/ z | [G^ce]/ z/ [A^df]/ z/ [Beg]/ z/ z/ [Beg]/ | %300
 [=cea]/[cea]/ z/ [cea]/ [d^fa]D/8F/8A/8c/8 z/ | %301
 ^D/8F/8A/8B/8 z/ =D/8F/8A/8c/8 z/ ^D/8F/8A/8B/8 z/ =F/8A/8c/8e/8 z/ | %302
 ^F/8A/8B/8^d/8 z/ =F/8A/8c/8e/8 z/ ^F/8A/8B/8d/8 z/ A/8c/8d/8g/8 z/ | %303
 (3B/4^d/4f/4 z/ A/8c/8d/8g/8 z/ (3B/4d/4f/4 z/ =d/8f/8a/8c'/8 z/ | %304
 ^d/8f/8a/8b/8 z/ =d/8f/8a/8c'/8 z/ ^d/8f/8a/8b/8 z/ z | z!8va(! .e'/.[bg']/ .e'.[c'e'] | %306
 .[ac'].[^a^c'] .[b^e']/.[be']/.[be'] | .[^ae']/.[ae']/.[ae'] .[=a^d']/.[ad']/.[ad'] | %308
 .[ge']/.b/.[ae']/.c'/ .[ge'] z | z .e/.g/ .e.^d | .a.g .[e'^a']/.[e'a']/.[e'a'] | %311
 .[d'f'^g']/.[d'f'g']/.[d'f'g'] .[^c'f']/.[c'f']/.[c'f'] | .[bf']/.^d'/.f'/.f/ .[bf'] z | %313
 z .e'/.[bg']/ .e'.[c'e'] | .[ac'].[^a^c'] .[b^e']/.[be']/.[be'] | %315
 .[^ae']/.[ae']/.[ae'] .[=a^d']/.[ad']/.[ad'] | .[ge']/.b/.[ae']/.c'/ .[ge'] z | %317
 z .[f^c']/.[^ae']/ .[fc'].[bf'] | z .[eb]/.[^gd']/ .[eb].[ae'] | z .[da]/.[fc']/ .[da].[gd'] | %320
 z (a'/4f'/4^d'/4b/4 [e'g'])!8va)! z |][K:G][M:2/4] z4 | z4 | z4 | z4 | z4 | z4 | z4 | z4 | z4 | %330
 z4 | z4 | z4 | z4 | z4 | z4 | z4 | z4 | z4 | z4 | z4 | z4 | z4 | z4 | z4 | z4 | z4 | z4 | z4 | %349
 z4 | z4 | z4 | z4 | z4 | z4 | z4 | z4 | z4 | z4 | z4 | z4 | z4 | z4 | z4 | z4 | z4 | z4 | z4 | %368
 z4 | z4 | z4 | z4 | z4 | z4 | z4 | z4 | z4 | z4 | z4 | z4 | z4 | z4 | z4 | z4 | z4 | z4 | z4 | %387
 z4 | z4 | z4 | z4 | z4 | z4 | z4 | z4 | z4 | z4 | z4 | z4 | z4 | z4 | z4 | z4 | z4 | z4 |] %405
[K:Bb][M:3/8] z3 | z3 | z3 | z3 | z3 | z3 | z3 | z3 | z3 | z3 | z3 | z3 | z3 | z3 | z3 | z3 | z3 | %422
 z3 | z3 | z3 | z3 | z3 | z3 | z3 | z3 | z3 | z3 | z3 | z3 | z3 | z3 | z3 | z3 | z3 | z3 | z3 | %441
 z3 | z3 | z3 | z3 | z3 | z3 | z3 | z3 | z3 | z3 | z3 | z3 | z3 | z3 | z3 | z3 | z3 | z3 | z3 | %460
 z3 | z3 | z3 | z3 | z3 | z3 | z3 | z3 | z3 | z3 | z3 | z3 | z3 | z3 | z3 | z3 | z3 | z3 | z3 | %479
 z3 | z3 | z3 | z3 | z3 | z3 | z3 | z3 | z3 | z3 | z3 | z3 | z3 | z3 | z3 | z3 | z3 | z3 | z3 | %498
 z3 | z3 | z3 | z3 | z3 | z3 | z3 | z3 |][K:D][M:3/4] z6 | z6 | z6 | z6 | z6 | z6 | z6 | z6 | z6 | %515
 z6 | z6 | z6 | z6 | z6 | z6 | z6 | z6 | z6 | z6 | z6 | z6 | z6 | z6 | z6 | z6 | z6 | z6 | z6 | %534
 z6 | z6 | z6 | z6 | z6 | z6 | z6 | z6 |: z6 | z6 | z6 | z6 | z6 | z6 | z6 | z6 | z6 | z6 | z6 | %553
 z6 |1 z6 | z6 | z6 | z6 :|2 z6 | z6 || z6 | z6 | z6 | z6 | z6 | z6 | z6 | z6 | z6 | z6 | z6 | z6 | %572
 z6 | z6 | z6 | z6 | z6 | z6 | z6 | z6 | z6 | z6 | z6 | z6 | z6 | z6 | z6 | z6 | z6 | z6 | z6 | %591
 z6 | z6 | z6 |: z6 | z6 | z6 | z6 | z6 | z6 | z6 | z6 | z6 | z6 | z6 | z6 |1 z6 | z6 | z6 | z6 :|2 %610
 z6 | z6 || z6 | z6 | z6 | z6 | z6 | z6 | z6 | z6 | z6 | z6 | z6 | z6 | z6 | z6 | z6 | z6 | z6 | %629
 z6 | z6 | z6 | z6 | z6 | z6 | z6 | z6 | z6 | z6 | z6 | z6 | z6 | z6 | z6 | z6 | z6 | z6 | z6 | %648
 z6 | z6 | z6 | z6 | z6 | z6 | z6 | z6 | z6 | z6 | z6 | z6 | z6 | z6 | z6 | z6 | z6 | z6 | z6 | %667
 z6 | z6 | z6 | z6 | z6 | z6 | z6 | z6 | z6 | z6 | z6 | z6 | z6 | z6 | z6 | z6 | z6 | z6 | z6 | %686
 z6 | z6 | z6 | z6 | z6 | z6 | z6 | z6 | z6 | z6 | z6 | z6 | z6 | z6 | z6 | z6 | z6 | z6 | z6 | %705
 z6 | z6 | z6 | z6 | z6 | z6 | z6 | z6 | z6 | z6 | z6 | z6 | z6 | z6 | z6 | z6 | z6 | z6 | z6 | %724
 z6 | z6 | z6 | z6 | z6 | z6 |: z6 | z6 | z6 | z6 | z6 | z6 | z6 | z6 | z6 | z6 | z6 | z6 |1 z6 | %743
 z6 | z6 | z6 :|2 z6 | z6 || z6 | z6 | z6 | z6 | z6 | z6 | z6 | z6 | z6 | z6 | z6 | z6 | z6 | z6 | %762
 z6 | z6 | z6 | z6 | z6 | z6 | z6 | z6 | z6 | z6 | z6 | z6 | z6 | z6 | z6 | z6 | z6 | z6 | z6 | %781
 z6 | z6 | z6 | z6 | z6 | z6 | z6 | z6 | z6 | z6 | z6 | z6 | z6 | z6 | z6 | z6 | z6 | z6 | z6 | %800
 z6 | z6 | z6 | z6 | z6 | z6 | z6 | z6 | z6 | z6 | z6 | z6 | z6 | z6 | z6 | z6 | z6 | z6 | z6 | %819
 z6 | z6 | z6 | z6 | z6 | z6 | z6 |] %826
V:3
!pp! .B z .ez/(d/ | c).g.f.B | (!>!ed) .c.B | (!>!d2 c) z | .B z .ez/(d/ | c).g.f(!>!b | g).f.e.d | %7
 .c.d .B z |!pp! .B z .ez/(d/ | c).g.f.B | (!>!ed) .c.B | (!>!d2 c) z | .B z .ez/(d/ | %13
 c).g.f(!>!b | g).f.e.d | .c.d .B!p!.d/.d/ | (c/d/).d/.d/ (B/d/).g/.b/ | %17
 (b/=e/).^f/.a/ (a/d/).a/.g/ | (=f/c/).f/._e/ (e/B/).e/.d/ | (B/d/)(A/d/) (!>!A/G/) z | %20
!p! B z A z | c z (c>^c | d>f A) z | c z .c z | (!>!B2 A/)f'/f'/f'/ | (!>!e'/_d'/c'/b/ a) z | %26
 (!>!B2 A/)f'/f'/f'/ | (!>!e'/_d'/c'/b/ a) z |!p! (c2 _d2) |"_cresc." (d2 e2) | %30
 .=e(f/b/) .^f(g/c'/) | ._a(=a/d'/)!f! .b(c'/f'/ | !tenuto!b) z !tenuto!e'z/.d'/ | (c'g'f').b | %34
 (!>!e'd') .c'.b | (!>!d'2 c') z | !tenuto!b z !tenuto!e'z/.d'/ | (c'g'f')(f' | %38
 g')"_cresc."(g' a')(a' | g')(g'!f! a') z | z2 z (f | e)(d c)(_d | c)(_d c)(d | c)(_d c) z | %44
!p! z a z b | z =b z c' | z =e' z d' | z c' z c' | z2 d' z | z c' z f | z2 d' z | z c' z f | %52
!<(! z g z a | z a z d'!<)! | z2 d' z |!mf!!>(! (=e'2- e'/d'/b/g/)!>)! |!p!!p!!<(! (a2 b2 | %57
 =b2 c'2)!<)! |!>(! (=e'2 d'>)(b | a2 g2)!>)! |!p! !>!d'3!<(! (d/=e/) | %61
 (g/f/=e/f/) (b/a/^g/a/)!<)! |!p! !>!d'3!<(! (d/=e/) | (g/f/=e/f/) (b/a/^g/a/)!<)! | %64
!mp! !>!f'3!<(! (^g/a/) | (c'/b/a/b/) (e'/d'/^c'/d'/)!<)! |!mf! !>!f'3!<(! (^g/a/) | %67
 (c'/b/a/b/) (e'/d'/^c'/d'/)!<)! |!f! !>!f'3 (^d'/=e'/) | (g'/f'/).=b/.^c'/ (=e'/=d'/).^g/.a/ | %70
 (=c'/b/).=e/.^f/ (a/g/).b/.a/ | (c'/b/).=e/.^f/ (a/g/).b/.a/ | %72
 .c'/.b/.c'/.b/!pp! .d'/.^c'/.d'/.c'/ |"_cresc." .=e'/.d'/.e'/.d'/ .f'/.e'/.f'/.e'/ | %74
 .g'/.f'/.g'/.f'/ .g'/.f'/.g'/.f'/ | .g'/.f'/.g'/.f'/ .g'/.f'/.g'/.f'/ | %76
!ff! .g'/.f'/.=e'/.f'/ .e'/.d'/.^c'/.d'/ | .=c'/.b/.a/.b/ .a/.g/.^f/.g/ | .f z z2 | %79
 z2 (f'/=e'/d'/e'/ | f') z a2 | df !>!g2 | a2 b2 | a2 b2 | a2 b2 | aa z a | z f z c | z cfa | %88
 ab a z |!pp! .B z .ez/(d/ | c).g.f.B | (!>!ed) .c.B | (!>!d2 c) z | .B z .ez/(d/ | c).g.f(!>!b | %95
 g).f.e.d | .c.d .B z |!pp! .B z .ez/(d/ | c).g.f.B | (!>!ed) .c.B | (!>!d2 c) z | .B z .ez/(d/ | %102
 c).g.f(!>!b | g).f.e.d | .c.d .B!p!.d/.d/ | (c/d/).d/.d/ (B/d/).g/.b/ | %106
 (b/=e/).^f/.a/ (a/d/).a/.g/ | (=f/c/).f/._e/ (e/B/).e/.d/ | (B/d/)(A/d/) (!>!A/G/) z | %109
!p! B z A z | c z (c>^c | d>f A) z | c z .c z | (!>!B2 A/)f'/f'/f'/ | (!>!e'/_d'/c'/b/ a) z | %115
 (!>!B2 A/)f'/f'/f'/ | (!>!e'/_d'/c'/b/ a) z |!p! (c2 _d2) |"_cresc." (d2 e2) | %119
 .=e(f/b/) .^f(g/c'/) | ._a(=a/d'/)!f! .b(c'/f'/ | !tenuto!b) z !tenuto!e'z/.d'/ | (c'g'f').b | %123
 (!>!e'd') .c'.b | (!>!d'2 c') z | !tenuto!b z !tenuto!e'z/.d'/ | (c'g'f')(f' | %127
 g')"_cresc."(g' a')(a' | g')(g'!f! a') z | z2 z (f | e)(d c)(_d | c)(_d c)(d | c)(_d c) z | %133
!p! z d' z e' | z =e' z f' | z a' z g' | z f' z f' | z2 g' z | z f' z b | z2 g' z | z f' z b | %141
!<(! z c' z d' | z d' z g'!<)! | z4 |!mf!!>(! (a2- a/g/e/c/)!>)! |!p!!p!!<(! (d2 e2 | =e2 f2)!<)! | %147
!>(! (a2 g>)(e | d2 c2)!>)! |!p! !>!g3!<(! (G/A/) | (c/B/A/B/) (e/d/^c/d/)!<)! | %151
!p! !>!g3!<(! (G/A/) | (c/B/A/B/) (e/d/^c/d/)!<)! |!mp! !>!b3!<(! (^c/d/) | %154
 (f/e/d/e/) (_a/g/^f/g/)!<)! |!mf! !>!b3!<(! (^c/d/) | (f/e/d/e/) (_a/g/^f/g/)!<)! | %157
!f! z2!f! !tenuto!d'2 | g'd' d'g | gg gg | gg gg | gg!pp!!pp! d'd' |"_cresc.""_cresc." d'd' d'd' | %163
 d'd' =e'e' | f'f' ^f'f' |!ff!!ff! g'g' z c' | c'c' z a | d' z d2 | gb (b/a/g/a/ | %169
 b/)(b/a/g/ ^f/=e/d/c/ | B/A/G/_G/) !>!c'2 |!ff! d'2 c'2 | d'2 c'2 | d'2 c'2 | d'd' z d' | %175
 z b z f | z fbd' | f'f' f'f' | f'f' f'f' | f' z!p! d' z | b z z2 |] %181
[K:G][M:4/4]!p! G z (3GGG G z G z | F z G z!mf!!>(! G4!>)! |!p!!p! G z (3GGG G z G z | %184
 F z G z!mf!!mf!!>(!!>(! G7/2 (E/!>)!!>)! |!p! c)z/(d/ c)z/(B/ A)z/(G/ F)z/(D/ | %186
 B)z/(c/ B)z/(A/ G)z/(F/ E)z/(G/ |!<(! F)z/(E/ ^D)z/(A/ G)z/(F/ E)z/(B/!<)! | %188
!mf! c)z/(B/ A)z/(G/ d) z{abc'^c'} d' z |!p! G z (3GGG G z G z | F z G z!mf!!>(! G4!>)! | %191
!p!!p! G z (3GGG G z G z | F z G z!mf!!mf!!>(!!>(! G7/2 (E/!>)!!>)! | %193
!p!"_cresc." c)z/(d/ c)z/(B/ A)z/(G/ F)z/(A/ | d)z/(e/ d)z/(c/ B)z/(A/ G)z/(B/ | %195
 e)z/(d/ c)z/(e/ f)z/(e/ d)z/(f/ | g)z/(f/ e)z/(f/!f! ^d) z{fga^a} b z | z8 | z4 z2!mf!{/^a} b z | %199
{/f} g z{/^d} e z{/B} c z{/^G} A z |!<(!{/B} c z{/^d} e z{/^e} f!<)! z!f!{/^a} b z | z8 | z8 | %203
 z4{/^D} E z{/^G} A z |!<(!{/^c} d z{/^e} f!<)! z!f!{/^c'} d' z (3DDD |!p! G z (3GGG G z G z | %206
 F z G z!mf!!>(! G4!>)! |!p!!p! G z (3GGG G z G z | F z G z!mf!!mf!!>(!!>(! G7/2 (E/!>)!!>)! | %209
!p! c)z/(d/ c)z/(B/ A)z/(G/ F)z/(D/ | B)z/(c/ B)z/(A/ G)z/(F/ E)z/(G/ | %211
!<(! F)z/(E/ ^D)z/(A/ G)z/(F/ E)z/(B/!<)! |!mf! c)z/(B/ A)z/(G/ d) z{abc'^c'} d' z | %213
!p! G z (3GGG G z G z | F z G z!mf!!>(! G4!>)! |!p!!p! G z (3GGG G z G z | %216
 F z G z!mf!!mf!!>(!!>(! G7/2 (E/!>)!!>)! |!p!"_cresc." c)z/(d/ c)z/(B/ A)z/(G/ F)z/(A/ | %218
 d)z/(e/ d)z/(c/ B)z/(A/ G)z/(B/ | e)z/(d/ c)z/(e/ f)z/(e/ d)z/(f/ | %220
 g)z/(f/ e)z/(f/!f! g) z!ff!{d'e'f'} g' z | %221
!mf! .g'/.g'/.g'/.g'/ .f'/.e'/.d'/.c'/ .b/.b/.b/.b/ .b/.c'/.b/.c'/ | %222
 .a/.a/.a/.a/ .a/.b/.a/.b/ .g/.a/.f/.g/ .e/.f/.^d/.f/ |!mf! (e6 d2 | %224
!<(! ^c2 =c2)!<)!!f! B2- B/.g/.b/.e'/ | %225
!mf! .g'/.g'/.g'/.g'/ .f'/.e'/.d'/.c'/ .b/.b/.b/.b/ .b/.c'/.b/.c'/ | %226
 .a/.a/.a/.a/ .a/.b/.a/.b/ .g/.a/.f/.g/ .e/.f/.^d/.f/ |!mf! (e6 d2 |!<(! ^c2 =c2)!<)!!f! B2- B z | %229
!f! G z (3GGG G z G z | F z G z!>(! G4!>)! |!f! G z (3GGG G z G z | %232
 F z G z!>(!!>(! G7/2 (E/!>)!!>)! |!mf! c)z/(d/ c)z/(B/ A)z/(G/ F)z/(D/ | %234
 B)z/(c/ B)z/(A/ G)z/(F/ E)z/(G/ |!<(! F)z/(E/ ^D)z/(A/ G)z/(F/ E)z/(B/!<)! | %236
!f! c)z/(B/ A)z/(G/ d) z!ff!{abc'^c'} d' z |!f! G z (3GGG G z G z | F z G z!>(!!>(! G4!>)!!>)! | %239
!f! G z (3GGG G z G z | F z G z!>(!!>(!!>(!!>(! G7/2 (E/!>)!!>)!!>)!!>)! | %241
!mf!"_cresc." c)z/(d/ c)z/(B/ A)z/(G/ F)z/(A/ | d)z/(e/ d)z/(c/ B)z/(A/ G)z/(B/ | %243
 e)z/(d/ c)z/(e/ f)z/(e/ d)z/(f/ | g)z/(f/ e)z/(f/ ^d) z!ff!{fga^a} b z | z8 | z4 z2!mf!{/^a} b z | %247
{/f} g z{/^d} e z{/B} c z{/^G} A z |!<(!{/B} c z{/^d} e z{/^e} f!<)! z!f!{/^a} b z | z8 | z8 | %251
 z4{/^D} E z{/^G} A z |!<(!{/^c} d z{/^e} f!<)! z!ff!{/^c'} d' z (3DDD |!f! G z (3GGG G z G z | %254
 F z G z!>(! G4!>)! |!f! G z (3GGG G z G z | F z G z!>(!!>(! G7/2 (E/!>)!!>)! | %257
!mf! c)z/(d/ c)z/(B/ A)z/(G/ F)z/(D/ | B)z/(c/ B)z/(A/ G)z/(F/ E)z/(G/ | %259
!<(! F)z/(E/ ^D)z/(A/ G)z/(F/ E)z/(B/!<)! |!f! c)z/(B/ A)z/(G/ d) z!ff!{abc'^c'} d' z | %261
!f! G z (3GGG G z G z | F z G z!>(! G4!>)! |!f! G z (3GGG G z G z | %264
 F z G z!>(!!>(! G7/2 (E/!>)!!>)! |!mf!"_cresc." c)z/(d/ c)z/(B/ A)z/(G/ F)z/(A/ | %266
 d)z/(e/ d)z/(c/ B)z/(A/ G)z/(B/ | e)z/(d/ c)z/(e/ f)z/(e/ d)z/(f/ | %268
 g)z/(f/ e)z/(f/!f! g) z!ff! G z |][K:G][M:2/4] z!p! .E z .F | z .G z .^D | z .E z .F | %272
 z .G z .^D | z .E z .F | z .G z .^G | z .^A z .c | .B.c .B z |!<(! z .C z .^D | z .E z .E!<)! | %279
 z!>(! .D z .E | .^D.E .D!>)! z | z!p! .E z .F | z .G z .^G | z .^A z .c | .B.c .B z | %285
 z2!p! (e^d) | z2 (=d^c) | z2 =c!<(!B- | B.B!<)!!mf! .Bb |!p! (^C^D EF) | (GE ^D) z | %291
 z!mf! (!>!^D EB,) | z!p! (!>!^CD)b |!p! (^C^D EF) | (GE ^D) z | z!mf! (!>!^D EB,) | %296
 z!p! (!>!^CD)b |!p! (^C^D E)b | (^DE F)b |"_cresc." (EF G)b/(G/ | A)b/(A/ B) z | z4 | z2 z z/ z/ | %303
 z4 | z2 z!p! (B/4A/4G/4F/4 | E/).E/.e/.e/ z .f/.f/ | z .g/.g/ z .^g/.g/ | z .^a/.a/ z .=c'/.c'/ | %308
 .b/ z/ .c'/ z/ .b/.b/ z |!<(! z .c/.c/ z .^d/.d/ | z .e/.e/ z .e/.e/!<)! | z!>(! .d/.d/ z .e/.e/ | %312
 .^d/ z/ .e/ z/ .d/.d/!>)! z | z!p! .e/.e/ z .f/.f/ | z .g/.g/ z .^g/.g/ | z .^a/.a/ z .c'/.c'/ | %316
 .b/ z/ .c'/ z/ .b/.b/ z | z2!p! (e'^d') | z2 (d'^c') | z2 c'!<(!b- | b.b!<)!!mf! .b.e |] %321
[K:G][M:2/4]!f! g z z2 | .c.B (Ac) |!f! d z z2 |!p! .^C.=C .B,!p!B | (A2 G2) | (F2 A2) | %327
!<(! (B2 G2) | .A.G!<)!!mf! (A/d/e/f/ |!f! g) z z2 | .c.B (Ac) |!f! d z z2 |!p! .^C.=C .B!p!B | %333
 (A2 G2) | (F2 A2) |!<(! (B2 A2) | .G.E!<)! .G/(d'/e'/f'/) |!ff! g'!mf!(g'/f'/) .g'.g' | %338
 .e'.d' (c'e') |!ff! d'!mf!(d'/^c'/ .d').d' | .b.a .g(b/d'/ | .a)(a/d'/ .g)(g/d'/ | %342
 .f)(f/d'/ .a)(a/d'/ |!<(! .b)(b/d'/ .g)(g/d'/ | .a).g!<)!!ff! (a/d'/e'/f'/ | %345
 g')!mf!(g'/f'/) .g'.g' | .e'.d' (c'e') |!ff! d'!mf!(d'/^c'/ .d').d' | .b.a .g(b/d'/ | %349
 .a)(a/d'/ .g)(g/d'/ | .f)(f/d'/ .a)(a/d'/ |!<(! .b)(b/d'/ .a)(a/d'/ | .g).e!<)!!ff! .g z | %353
!f! .d.d' .d.d' | .e.e' .e.e' | .e.e' .e.e' | .f.f' .f.f' | .g.g' .f.f' | .e.e' .d.d' | %359
 .^c.^c' .B.b | .A.a .^c.^c' | .d.d' .d.d' | .e.e' .e.e' | .e.e' .e.e' | .f.f' .f.f' | %365
 .g.g' .f.f' | .e.e' .d.d' | .^c.^c' .B.b | .A.a .A!ff!.a | =c'_E- EA- | AA- A!ff!a | =c'_E- EA- | %372
 AA- A!ff!a | =c'A- A!ff!a | =c'A- A!ff!a | =c'a =c'a | =c'a d'(3(d'/e'/f'/) | %377
!ff! g'(g'/f'/) .g'.g' | .e'.d' (c'e') |!ff! d'(d'/^c'/ .d').d' | .b.a .g((b/d'/ | %381
 .a))((a/d'/ .g))((g/d'/ | .f))((f/d'/ .a))((a/d'/ |!<(!!<(! .b))((b/d'/ .g))((g/d'/ | %384
 .a)).g!<)!!<)!!ff! a(3(d'/e'/f'/) |!ff! g'(g'/f'/) .g'.g' | .e'.d' (c'e') | %387
!ff! d'(d'/^c'/ .d').d' | .b.a .g(b/d'/ | .a)(a/d'/ .g)(g/d'/ | .f)(f/d'/ .a)(a/d'/ | %391
"^stringendo" .b)(b/d'/ .a)(a/d'/ | .g)(g/d'/ .b)(b/d'/ |!fff! .a)(a/d'/ .g)(g/d'/ | %394
 .f)(f/d'/ .a)(a/d'/ | .b)(b/d'/ .a)(a/d'/ | .g)(g/d'/ .b)(b/d'/ | .a)(a/d'/ .c')(c'/d'/ | %398
 .b)(b/d'/ .g)(g/d'/ | .a)(a/d'/ .c')(c'/d'/ | .b)(b/d'/ .g)(g/d'/ | %401
"^Prestissimo" .a)(a/d'/ .g)(g/d'/ | .a)(a/d'/ .g)(g/d'/ | .a)(a/d'/ .g)(g/d'/ | .a)d' g' z |] %405
[K:Bb][M:3/8] z3 | z3 | z3 | z3 |!p! (!>!C2 D) | (!>!C2 D) | (!>!C2 D) | z/ .D/.D/ z/ z/ .D/ | %413
 (!>!C2 D) | (!>!C2 D) | (!>!C2 D) | z/ .D/.D/ z/ z/ .D/ | z/ .D/.D/ z/ z/ .D/ |!p! (B2 c | %419
!<(! .d) d2 | (d>cd | .c)!<)!!f! !>!B2 | (c2 d | B)!>(!(5:4:5(A/4B/4A/4B/4A/4G- | G3-)!>)! | %425
!p! G z2 |!pp! (B2 c | .d)"_cresc." d2 | (d>cd | .c) !>!B2 |!mf!!<(! (c2 d!<)! | %431
 e)(5:4:5(e/4f/4e/4f/4e/4d- | d)(c/d/).c/.B/ |!>(! c B2- | %434
 B(A/4B/4A/4B/4(5:4:5A/4B/4A/4B/4A/4!>)! |!p! G3-) | G z2 |!p! (!>!C2 D) | (!>!C2 D) | (!>!C2 D) | %440
 z/ .D/.D/ z/ z/ .D/ | (!>!C2 D) | (!>!C2 D) | (!>!C2 D) | z/ .D/.D/ z/ z/ .D/ | %445
 z/ .D/.D/ z/ z/ .D/ |!pp!!<(! (d2 e | .f)!<)! !>!f2 | (f>g_a) |!mf! (5:4:5(g/4_a/4g/4a/4g/4 ^f2- | %450
 f)(g^f) | (5:4:5(=f/4g/4f/4g/4f/4 =e2- | e)"_dim."(f_e) |!>(! d3!>)! |!p!!<(! (B2 ^c!<)! | %455
 .d) !>!d2 | (d>ef) |!mf! (5:4:5(e/4f/4e/4f/4e/4 d2- | d)"_dim."(ed) | %459
 (5:4:5(^c/4d/4c/4d/4c/4 =c2- | c)(^c=c) | (=B3- |!>(! B2- B/>_B/)!>)! |!pp! B3- | B3 | %465
!p! (!>!C2 D) | (!>!C2 D) | (!>!C2 D) | z/ .D/.D/ z/ z/ .D/ | (!>!C2 D) | (!>!C2 D) | (!>!C2 D-) | %472
 D3- | D3 | z/ .D/.D/ z/ z/ .D/ | z/ .D/.D/ z/ z/ .D/ | z/ .D/.D/ z/ z/ .D/ | z/ .D/.D/ z/ z/ .D/ | %478
 z/ .D/.D/ z/ z/ .D/ | z/ .D/.D/ z/ z/ .D/ |!mp! (g'.d') (g |.d) z2 | z/ .D/.D/ z/ z/ .D/ | %483
 z/ .D/.D/ z/ z/ .D/ | z/ .D/.D/ z/ z/ .D/ | z/ .D/.D/ z/ z/ .D/ | z/ .D/.D/ z/ z/ .D/ | %487
 z/ .D/.D/ z/ z/ .D/ |!p! (g.d) (G |.D) z2 | z3 | z3 |!p! (B2 =B- | B3) | z3 | z3 |!p! (B2 =B- | %497
 B3) | z3 |!pp! =B3 | z3 |!pp! =B3- | B3- |"_dim." B3- | B3 |!ppp! =B z2 |][K:D][M:3/4] z6 | z6 | %508
 z6 | z6 |!p! A2 d2 f2 | g4- g>f | f6- | f6 | A2 d2 f2 | g2 f7/2 e/ | a4 d2 | z2 (.A2 .A2) | %518
 z2 (.A2 .A2) | z2"_cresc." (.^A2 .=A2) | z2 (.B2 .B2) | z2 (.B2 .B2) | z2 (.B2 .B2) | %523
!mp! z2 (.G2 .G2) | z2 (.D2 .D2) | C z z4 |!p! A2 d2 f2 | g4- g>f | f6- | f6 | A2 d2 f2 | %531
 g2 f7/2 e/ | a4 d2 |!p! z2 (.=C2 .C2) |"_cresc." z2 (.^C2 .C2) | z2 (.C2 .C2) | z2 (.C2 .C2) | %537
 z2 (.C2 .C2) | z2!mf! C4 | C4 =C2- | C2 ^C2 C2 | C!f!(A Bc de) |: (f4 c2) | (e4 B2) | (d4 G2) | %545
 (5:4:5(c'/d'/c'/d'/c'/) .^b z .c' z | (g4 d2) | (f4 c2) | (e4 A2) | %549
 (5:4:5(d'/e'/d'/e'/d'/) .c' z .d' z | (f4 c2) | (e4 B2) | (d4 G2) | %553
 (5:4:5(c'/d'/c'/d'/c'/) .^b z .c' z |1!<(! (g4 d2) | (g4 ^d2) | (g4 e2)!<)! | a!f!(A Bc de) :|2 %558
 (b4 a2) | (b4 a2) || b z!ff! (ef g^g | a) z z4 |!mp!!mp! D2 F2 A2 | c4- c>d | (d!<(!A Bc df)!<)! | %565
!>(! (ba fd BA)!>)! | D2 F2 A2 | c2 c7/2 c/ |!<(! (Ac de fa)!<)! |!>(! (d'a fd AF)!>)! | %570
 F z z2 z!mf! (f | e=c G) z z2 | z2 z2 z!f! (a | ge B) z z2 | z2 d'2 b2 | g2 (ed gb) | %576
 (d/e/d/e/ d/e/d/e/ (5:4:5d/e/d/e/d/ | c) z z4 |!mp!!mp! D2 F2 A2 | c4- c>d | (d!<(!A Bc df)!<)! | %581
!>(! (ba fd BA)!>)! | D2 F2 A2 | c2 c7/2 c/ | (Ac de fa) | (d'a fd AF) | F z z2 z!mf! (a | %587
 ^g^e c) z z2 | z2 z2 z!f! (f | ^eB) (^G4 | A) z!mf! C4 | C4 =C2- | C2 ^C2 C2 | %593
 C!f!!f!((A Bc de)) |: (f4 c2) | (e4 B2) | (d4 G2) | (5:4:5(c'/d'/c'/d'/c'/) .^b z .c' z | %598
 (g4 d2) | (f4 c2) | (e4 A2) | (5:4:5(d'/e'/d'/e'/d'/) .c' z .d' z | (f4 c2) | (e4 B2) | (d4 G2) | %605
 (5:4:5(c'/d'/c'/d'/c'/) .^b z .c' z |1!<(! (g4 d2) | (g4 ^d2) | (g4 e2)!<)! | a!f!(A Bc de) :|2 %610
!<(! (b4 a2) | (b4 a2)!<)! || c' z!ff! (a^a bc' | d') z!p! (d'2 ^d'2) | (e'4 a2) | z2 (b2 =c'2) | %616
 (d'4 g2) | z2 (a2 b2) | (=c'4 e2) | (b4 g2) | (b4 a2) | z2 (d'2 ^d'2) | (e'4 a2) | z2 (b2 =c'2) | %624
!<(! (d'4 g2) | z2 (b2 ^e2)!<)! |!f! (f2 b2 d'2) | (d'4 c'2) | (bd ef ^g^a | b) z!p! (d'2 ^d'2) | %630
 (e'4 a2) | z2 (b2 =c'2) | (d'4 g2) | z2 (a2 b2) | (=c'4 e2) | (b4 g2) | (b4 a2) | z2 (d'2 ^d'2) | %638
 (e'4 a2) | z2 (b2 =c'2) | (d'4 g2) | z2!<(! (b2 ^e2) | (f2 b2 d'2) | (d'4 c'2)!<)! | %644
!mf! z .B (Bd) (db) | z .B (Bd) (db) | z .B (Bg) (gb) | z .B (Bg) (gb) | z .c (ce) (ec') | %649
 z .c (c^a) (ac') | z .B (Bg) (gb) | z!mp! .B (Bg) (gb) | z .B (Bf) (fb) | z .F (Fd) (df) | %654
 z .G (GB) (Bg) | z .G (GB) (Bg) | z .F (Fe) (ef) | z .F (Fe) (ef) | z .F (Fd) (df) | z6 | %660
!mf! z .B (Bd) (db) | z .B (Bd) (db) | z .B (Bg) (gb) | z .B (Bg) (gb) | z .c (ce) (ec') | %665
 z .c (c^a) (ac') | z .B (Bg) (gb) | z!mp! .B (Bg) (gb) | z .B (Bf) (fb) | z .B (Bf) (fb) | %670
 z .B (Bg) (gb) |"_cresc." z .B ((Bg)) ((gb)) | .B(B d)(d b) z | .^A(A c)(c ^a) z | %674
 z!f! .B (Bf) (fb-) | b z!p! (d'2 ^d'2) | (e'4 a2) | z2 (b2 =c'2) | (d'4 g2) | z2 (a2 b2) | %680
 (=c'4 e2) | (b4 g2) | (b4 a2) | z2 (d'2 ^d'2) | (e'4 a2) | z2 (b2 =c'2) | (d'4 g2) | %687
 z2"_cresc." (g2 a2) | (b4 e2) | (b4 e2) |!f! (!>!b2 e2) (!>!b2 | e2) (!>!b2 e2) | %692
!ff! (!>!B2 E2) (!>!B2 | E2) (!>!B2 E2) |!ff! (3(bc'b c') z z2 | z6 | z6 | z6 |!mf! D2 F2 A2 | %699
 c4- c>d | (d!<(!A Bc df)!<)! |!>(! (ba fd BA)!>)! | D2 F2 A2 | c2 c7/2 c/ |!<(! (Ac de fa)!<)! | %705
!>(! (d'a fd AF)!>)! | F z z2 z!mf! (f | e=c G) z z2 | z2 z2 z!f! (a | ge B) z z2 | z2!ff! d'2 b2 | %711
 g2 (ed gb) | (d/e/d/e/ d/e/d/e/ (5:4:5d/e/d/e/d/ | c) z z4 |!mf! D2 F2 A2 | c4- c>d | %716
 (d!<(!A Bc df)!<)! |!>(! (ba fd BA)!>)! | D2 F2 A2 | c2 c7/2 c/ | (Ac de fa) | (d'a fd AF) | %722
 F z z2 z!mf! (a | ^g^e c) z z2 | z2 z2 z!f! (f | ^eB) (^G4 | A) z!f! C4 | C4 =C2- | C2 ^C2 C2 | %729
 C!f!!f!((A Bc de)) |: (f4 c2) | (e4 B2) | (d4 G2) | (5:4:5(c'/d'/c'/d'/c'/) .^b z .c' z | %734
 (g4 d2) | (f4 c2) | (e4 A2) | (5:4:5(d'/e'/d'/e'/d'/) .c' z .d' z | (f4 c2) | (e4 B2) | (d4 G2) | %741
 (5:4:5(c'/d'/c'/d'/c'/) .^b z .c' z |1!<(! (g4 d2) | (g4 ^d2) | (g4 e2)!<)! | a!f!(A Bc de) :|2 %746
!<(! (b4 a2) | (b4 a2)!<)! || c' z!f!!<(! (ef g^g | a)(^g a^a bc')!<)! |!ff! d'6 | c'6 | %752
 (d'c') .b.a (ba) | .f.d .f.a .b.d' | f'6 | (g'2 a'2 g'2) | (f'e') .d'.a .f.a | =c' z z4 | %758
 z2 z2 z!p! (g' | =f'6-) | f'4- f'(_b | d'=c' ag =f) z | z2 z2 z (g' | =f'6-) | f'4- f'(_b | %765
 d'=c' ag =f) z |"_cresc." =F2 F2 z2 | =F2 F2 z2 | =F2 F2 z2 | G2 G2 z2 |!mf! (fg fa) ((ga | %771
 g_b)) ((ab a=c')) | ((b=c' bd')) ((^c'd' | c'e')) (d'=f' e'g') |!f! =f'6 | e'6 | %776
 (=f'e' d'=c') (d'c' | a=f) a=c' d'=f' | a'6 | _b'6 | (a'g' =f'=c') .a.c' | (^c'a) .^g.a .=b.c' | %782
!ff! (d'4 a2) | (d'4 ^a2) | (c'b ^ab ge) | (3(bc'b) .^a z .b z |!ff! (c'4 g2) | (c'4 ^g2) | %788
 (ba ^ga fd) | (3(aba) .^g z .a z |!ff! (_b4 =f2) | (^g4 e2) | (a2 e2)!p! (3(f=gf | %793
 d) z (3(gag e) z |"_cresc." (3(^gag =f) z (3(a_ba | ^f) z (3(_b=c'b g) z | %796
 (3(=b=c'b ^g) z (3(=c'd'c' | a) z (3(^c'd'c' a) z |!ff! (d'4 a2) | (d'4 ^a2) | (c'b ^ab ge) | %801
 (3(bc'b) .^a z .b z |!ff! (c'4 g2) | (c'4 ^g2) | (ba ^ga fd) | (3(aba) .^g z .a z | %806
!ff! (_b4 =f2) | (^g4 e2) | (a2 e2)!p! (3(f=gf | d) z (3(gag e) z | %810
"_cresc." (3(^gag =f) z (3(a_ba | ^f) z (3(_b=c'b g) z | (3(=b=c'b ^g) z (3(=c'd'c' | %813
 a) z (3(^c'd'c' a) z |!fff! d' z (3(c'd'c' a) z | (3(bc'b g) z c' z | d' z (3(c'd'c' a) z | %817
 (3(bc'b g) z c' z | d' z (3(c'd'c' b) z | d' z (3(c'd'c' b) z | d' z (3(c'd'c' b) z | %821
 d' z (3(c'd'c' b) z | A2 d2 f2 | g2 a7/2 d/ | d2 f2 a2 | d' z z4 |] %826
V:4
[K:C]!pp! .G z .cz/(c/ | A).B.c.G | (!>!Fc) .A.A | (!>!A2 B) z | .G z .cz/(c/ | A).B.c(!>!g | %6
 f).e .c z | .B.B .G z |!pp! .G z .cz/(c/ | A).B.c.G | (!>!c2 .F).F | (!>!^F2 G) z | .G z .cz/(c/ | %13
 A).B.c(!>!g | f).e .c z | .B.B .G z |!p! d z c z | e z (^G>A | _B>=B c) z | (!>!d2 c)!p!.E/.E/ | %20
 (D/E/).E/.E/ (D/E/).G/.B/ | (B/E/).^F/.A/ (A/D/).A/.G/ | (^F/C/).F/.E/ (E/B,/).E/.D/ | %23
 (D/E/)(C/D/ B,/)!p!.g/.g/.g/ | (!>!f/_e/d/c/ B) z | (!>!c'2 b/).g/.g/.g/ | (!>!f/_e/d/c/ B) z | %27
 (!>!c'2 b/)!p!.g/.g/.g/ | (d/g/).g/.g/ (_e/_a/).a/.a/ |"_cresc." (e/a/).a/.a/ (f/_b/).b/.b/ | %30
 (^f/b/).g (^g/^c'/).a | (_b/_e'/).=b!f! (c'/f'/).d' | !tenuto!g z !tenuto!a z | (a>b c') z | %34
 (!>!g2 a).a | (!>!g2 g) z | !tenuto!g z !tenuto!a z | (a>b c')(_b | a)"_cresc."(c' b)(d' | %39
 c')(^d'!f! e').e/.e/ | a4- | a4- | a4- | a2- a z |!p! z g z g | z g z g | z c' z c' | z ^g z a | %48
 z2 a z | z b z d | z2 a z | z b z d |!<(! z ^f z g | z a z b!<)! |!mf! z/ (E/G/^c/ e) z | %55
 z/ (A/d/^f/ a) z |!p!!<(! z g z g | z g z g!<)! |!>(! z c' z c' | z d' z c'!>)! | z2!p! a!<(! z | %61
 z b z d'!<)! | z2!p! a!<(! z | z b z d'!<)! | z2!mp! d' z |!<(! z e' z c'!<)! | z2!mf! d' z | %67
!<(! z e' z c'!<)! | z2!f! !tenuto!b2 | e'b be | ee ee | ee ee | ee!pp! bb |"_cresc." bb bb | %74
 bb ^c'c' | d'd' ^d'd' |!ff! e'e' z a | aa z ^f | d z b2 | eg !>!a2 | d z z2 | z2 (g/^f/e/f/) | %82
 ((a/g/^f/g/)) (g/f/e/f/) | ((a/g/^f/g/)) (g/f/e/f/) | ((a/g/^f/g/)) (g/f/e/f/) | %85
 ((a/g/^f/g/)) (e/d/^c/d/) | (c/B/^A/B/) (a/g/^f/g/) | (e/d/)(a/g/) (c'/b/)(e'/d'/) | g'^f' g' z | %89
!pp! .G z .cz/(c/ | A).B.c.G | (!>!Fc) .A.A | (!>!A2 B) z | .G z .cz/(c/ | A).B.c(!>!g | %95
 f).e .c z | .B.B .G z |!pp! .G z .cz/(c/ | A).B.c.G | (!>!c2 .F).F | (!>!^F2 G) z | .G z .cz/(c/ | %102
 A).B.c(!>!g | f).e .c z | .B.B .G z |!p! d z c z | e z (^G>A | _B>=B c) z | (!>!d2 c)!p!.E/.E/ | %109
 (D/E/).E/.E/ (D/E/).G/.B/ | (B/E/).^F/.A/ (A/D/).A/.G/ | (^F/C/).F/.E/ (E/B,/).E/.D/ | %112
 (D/E/)(C/D/ B,/)!p!.g/.g/.g/ | (!>!f/_e/d/c/ B) z | (!>!c'2 b/).g/.g/.g/ | (!>!f/_e/d/c/ B) z | %116
 (!>!c'2 b/)!p!.g/.g/.g/ | (d/g/).g/.g/ (_e/_a/).a/.a/ |"_cresc." (e/a/).a/.a/ (f/_b/).b/.b/ | %119
 (^f/b/).g (^g/^c'/).a | (_b/_e'/).=b!f! (c'/f'/).d' | !tenuto!g z !tenuto!a z | (a>b c') z | %123
 (!>!g2 a).a | (!>!g2 g) z | !tenuto!g z !tenuto!a z | (a>b c')(_b | a)"_cresc."(c' b)(d' | %128
 c')(^d'!f! e').e/.e/ | a4- | a4 | g4- | g2- g z |!p!!<(! (e2 f2 | ^f2 g2)!<)! |!>(! (b2 a>)(f | %136
 e2 d2)!>)! |!p! a3!<(! (A/B/) | (d/c/B/c/) (f/e/^d/e/)!<)! |!p! a3 (A/B/) | %140
 (d/c/B/c/) (f/e/^d/e/) |"_cresc." (a/^g/^^f/g/) (b/a/g/a/) | (c'/b/^a/b/) (d'/c'/b/c'/) | %143
!mf!!>(! (e'2- e'/d'/c'/a/!>)! | g) z z2 |!p!!<(! z c z c | z c z c!<)! |!>(! z f z f | %148
 z g z f!>)! | z2!p! d!<(! z | z e z g!<)! | z2!p! d!<(! z | z e z g!<)! | z2!mp! g z | %154
!<(! z a z f!<)! | z2!mf! g z |!<(! z a z f!<)! |!f! !>!e3 (^A/B/)!f! | %158
 (d/c/).^^F/.^G/ (B/A/).^d/.e/ | (g/f/).B/.^c/ (e/d/).f/.e/ | (g/f/).B/.^c/ (e/d/).f/.e/ | %161
 .g/.f/.g/.f/!pp!!pp! .a/.^g/.a/.g/ |"_cresc.""_cresc." .b/.a/.b/.a/ .c'/.b/.c'/.b/ | %163
 .d'/.c'/.d'/.c'/ .d'/.c'/.d'/.c'/ | .d'/.c'/.d'/.c'/ .d'/.c'/.d'/.c'/ | %165
!ff!!ff! .d'/.c'/.b/.c'/ .b/.a/.^g/.a/ | .g/.f/.e/.f/ .e/.d/.^c/.d/ | .c/(c'/b/a/ ^g/^f/e/d/ | %168
 c/B/A/_A/) !>!d'2 | e' z e2 | ac' (c'/b/a/b/) |!ff! (d'/c'/b/c'/) (c'/b/a/b/) | %172
 (d'/c'/b/c'/) (c'/b/a/b/) | (d'/c'/b/c'/) (c'/b/a/b/) | (d'/c'/b/c'/) (a/g/^f/g/) | %175
 (f/e/^d/e/) (=d/c/B/c/) | (A/G/)(d/c/) (f/e/)(a/g/) | c'b c'b | c'b c'b | c' z!p! g z | %180
 c z"^A clarinet" z2 |][K:Bb][M:4/4]!p! f z (3fff g z g z | a z f z!mf!!>(! g4!>)! | %183
!p! f z (3fff g z g z | a z f z!mf!!>(! g4!>)! |!p! C=B,CD E=EFA, | B,A,B,C ^CDEG, | %187
!<(! C^CDE =E^FGB!<)! |!mf! cde=e f z c' z |!p! f z (3fff g z g z | a z f z!mf!!>(! g4!>)! | %191
!p! f z (3fff g z g z | a z f z!mf!!>(! g4!>)! |!p!"_cresc." (G6 C) z | (A6 D) z | B2 c4 d2- | %196
 d2 (e2!f! A) z ^f z | B z (3BBB _G z E z | C z A, z ^F,2 g z | d z d z G z G z | %200
!<(! A z e z d!<)! z!f! ^f z | B z (3BBB _G z E z | C z A, z ^F,.d'.^c'.=c' | %203
 .b.a.g.f .e!<(!.d.c.B | .A.G.F.E!<)!!f! .D.C.B,.A, |!p! f z (3fff g z g z | %206
 a z f z!mf!!>(! g4!>)! |!p! f z (3fff g z g z | a z f z!mf!!>(! g4!>)! |!p! C=B,CD E=EFA, | %210
 B,A,B,C ^CDEG, |!<(! C^CDE =E^FGB!<)! |!mf! cde=e f z c' z |!p! f z (3fff g z g z | %214
 a z f z!mf!!>(! g4!>)! |!p! f z (3fff g z g z | a z f z!mf!!>(! g4!>)! |!p!"_cresc." (G6 C) z | %218
 (A6 D) z | B2 c6 | (f2 e2!f! d) z!ff! f' z |!mf! G6 (F2 | =E2 _E2 D2 C2) | %223
!mf! .b/.b/.b/.b/ .a/.g/.f/.e/ .d/.d/.d/.d/ .d/.e/.d/.e/ | %224
!<(! .c/.c/.c/.c/ .c/.d/.c/.d/ .B/.c/.A/.B/!<)!!f! .G z |!mf! G6 (F2 | =E2 _E2 D2 C2) | %227
!mf! .b/.b/.b/.b/ .a/.g/.f/.e/ .d/.d/.d/.d/ .d/.e/.d/.e/ | %228
!<(! .c/.c/.c/.c/ .c/.d/.c/.d/ .B/.c/.A/.B/!<)!!f! .G/.A/.B/.d/ |!f! f z (3fff g z g z | %230
 a z f z!>(! g4!>)! |!f! f z (3fff g z g z | a z f z!>(! g4!>)! |!mf!!mf! (g6 c) z | (f6 B) z | %235
!<(! (e2!<(! A) z (c2 B) z!<)!!<)! |!f!!f! (g4 a) z!ff! c' z |!f! f z (3fff g z g z | %238
 a z f z!>(!!>(! g4!>)!!>)! |!f! f z (3fff g z g z | a z f z!>(!!>(! g4!>)!!>)! | %241
!mf!"_cresc." (g6 c) z | (a6 d) z | b2 c'4 d'2- | d'2 (e'2 a) z!ff! ^f z |!f! B z (3BBB _G z E z | %246
 C z A, z ^F,2!mf! g z | d z d z G z G z |!<(! A z e z d!<)! z!f! ^f z |!f! B z (3BBB _G z E z | %250
 C z A, z ^F,.d'.^c'.=c' | .b.a.g.f .e!<(!.d.c.B | .A.G.F.E!<)!!ff! .D.C.B,.A, | %253
!f! f z (3fff g z g z | a z f z!>(! g4!>)! |!f! f z (3fff g z g z | a z f z!>(! g4!>)! | %257
!mf!!mf!!mf! (g6 c) z | (f6 B) z |!<(!!<(! (e2!<(! A) z (c2 B) z!<)!!<)!!<)! | %260
!f!!f!!f! (g4 a) z!ff! c' z |!f! f z (3fff g z g z | a z f z!>(! g4!>)! |!f! f z (3fff g z g z | %264
 a z f z!>(! g4!>)! |!mf!"_cresc." (g6 c) z | (a6 d) z | b2 c'6 | (f'2 e'2!f! d') z!ff! F z |] %269
[K:Bb][M:2/4] z4 | z4 | z4 | z4 | z4 | z4 | z4 | z4 | z4 | z4 | z4 | z4 | z4 | z4 | z4 | z4 | z4 | %286
 z4 | z4 | z4 | z4 | z4 | z4 | z4 | z4 | z4 | z4 | z4 | z4 | z4 | z4 | z4 | z4 | z4 | z4 | z4 | %305
 z4 | z4 | z4 | z4 | z4 | z4 | z4 | z4 | z4 | z4 | z4 | z4 | z4 | z4 | z4 | z4 |] %321
[K:Bb][M:2/4]!f!!f!!f!!f! !arpeggio![B,Fdb]!p!(b/a/) .b.b | .g.f (eg) | %323
!f! !arpeggio![DBf]!p!(f/=e/ .f).f | .d.c .B(d/f/ | .c)(c/f/ .B)(B/f/ | .A)(A/f/ .c)(c/f/ | %327
!<(! .d)(d/f/ .B)(B/f/ | .c).B!<)!!mf! (c/f/g/a/ |!f!!f!!f!!f! b)!p!(b/a/) .b.b | .g.f (eg) | %331
!f! f!p!(f/=e/ .f).f | .d.c .B(d/f/ | .c)(c/f/ .B)(B/f/ | .A)(A/f/ .c)(c/f/ | %335
!<(! .d)(d/f/ .c)(c/f/ | .B).G!<)! .B/(f/g/a/) |!ff! b!mf!(b/a/) .b.b | .e.d (ce) | %339
!ff! f!mf!(f/=e/ .f).f | .=e._e .dd | (c2 B2) | (A2 c2) |!<(! (d2 B2) | .c.B!<)!!ff! .c/(f/g/a/) | %345
!ff! b!mf!(b/a/) .b.b | .e.d (ce) |!ff! f!mf!(f/=e/ .f).f | .=e._e .dd | (c2 B2) | (A2 c2) | %351
!<(! (d2 c2) | .B.G!<)!!ff! .B z | z2!f! F2 | .G(G/^F/ G).=F | =E2 G2 | .A(A/^G/) (A/=G/F/=E/) | %357
 B2 A2 | G2 F2 | =E z z2 | z4 | z2!f! F2 | .G(G/^F/ G).=F | =E2 G2 | .A(A/^G/) (A/=G/F/=E/) | %365
 B2 A2 | G2 F2 | =E z z2 | z2 z!ff! a | b(B/A/ .B)(=e/^d/ | .=e)(f/e/ .f)!ff!a | %371
 b(B/A/ .B)(=e/^d/ | .=e)(f/e/ .f)!ff!a | b(B/A/ .B)!ff!a | b(B/A/ .B)!ff!a | ba ba | %376
 ba c'(3(f/g/a/) |!ff! b(b/a/) .b.b | .e.d (ce) |!ff! f(f/=e/ .f).f | .=e._e .dd | ((c2 B2)) | %382
 ((A2 c2)) |!<(!!<(! ((d2 B2)) | .c.B!<)!!<)!!ff! c(3(f/g/a/) |!ff! b(b/a/) .b.b | .e.d (ce) | %387
!ff! f(f/=e/ .f).f | .=e._e .d(d/f/ | .c)(c/f/ .B)(B/f/ | .A)(A/f/ .c)(c/f/ | %391
"^stringendo" .d)(d/f/ .c)(c/f/ | .B)(B/f/ .d)(d/f/ |!fff! .c)(c/f/ .B)(B/f/ | .A)(A/f/ .c)(c/f/ | %395
 .d)(d/f/ .c)(c/f/ | .B)(B/f/ .d)(d/f/ | .c)(c/f/ .e)(e/f/ | .d)(d/f/ .B)(B/f/ | %399
 .c)(c/f/ .e)(e/f/ | .d)(d/f/ .B)(B/f/ |"^Prestissimo" .c)(c/f/ .B)(B/f/ | .c)(c/f/ .B)(B/f/ | %403
 .c)(c/f/ .B)(B/f/ | .A)c' b"^Bb clarinet" z |][K:C][M:3/8]!p! z/ .A,/.A,/ z/ z/ .A,/ | %406
 z/ .A,/.A,/ z/ z/ .A,/ | z/ .A,/.A,/ z/ z/ .A,/ | z/ .A,/.A,/ z/ z/ .A,/ |!p! (!>!G2 E) | %410
 (!>!G2 E) | (G(5:4:5F/4G/4F/4G/4F/4E- | E3) | (!>!G2 E) | (!>!G2 E) | (G(5:4:5F/4G/4F/4G/4F/4E- | %416
 E3-) | E3 |!p! (A2 B |!<(! .c) c2 | (c>Bc | .B)!<)!!f! !>!A2 | (B2 c | %423
 A)!>(!(5:4:5(^G/4A/4G/4A/4G/4A- | A3-)!>)! |!p! A z2 |!pp! (A2 B | .c)"_cresc." c2 | (c>Bc | %429
 .B) !>!A2 |!mf!!<(! (B2 c!<)! | d)(5:4:5(d/4e/4d/4e/4d/4c- | c)(B/c/).B/.A/ |!>(! B A2- | %434
 A(^G/4A/4G/4A/4(5:4:5G/4A/4G/4A/4G/4!>)! |!p! A3-) | A z2 |!p!!p! ((!>!B,2 C)) | ((!>!B,2 C)) | %439
 ((!>!B,2 C- | C3)) | ((!>!B,2 C)) | ((!>!B,2 C)) | ((!>!B,2 C- | C3-)) | C3 |!pp!!<(! (c2 d | %447
 .e)!<)! !>!e2 | (e>fg) |!mf! (5:4:5(f/4g/4f/4g/4f/4 e2- | e)(fe) | (5:4:5(_e/4f/4e/4f/4e/4 d2- | %452
 d)"_dim."(_ed) |!>(! c3!>)! |!p!!<(! (A2 B!<)! | .c) !>!c2 | (c>de) | %457
!mf! (5:4:5(d/4e/4d/4e/4d/4 c2- | c)"_dim."(dc) | (5:4:5(B/4c/4B/4c/4B/4 _B2- | B)(=B_B) | A3- | %462
!>(! A3-!>)! |!pp! A3- | A3 |!p! (!>!G2 E) | (!>!G2 E) | (G(5:4:5F/4G/4F/4G/4F/4E- | E3) | %469
 (!>!G2 E) | (!>!G2 E) | (G(5:4:5F/4G/4F/4G/4F/4E- | E3) |!mf! a3- |!<(! a3- | %475
 a2!<)!!f! (^g/4a/4g/4e/4) | g3- | g2 (f/4g/4f/4c/4) |!>(! e3-!>)! |!p! e z2 |!mp! (b.a) (B | %481
.A) (A.E) |!p! (C2 D | .E) E2 | (E>DE | .D)!p!!<(! !>!C2 | (D2 E!<)! | %487
!mf! C)!>(!(5:4:5(B,/4C/4B,/4C/4B,/4A,- | A,3-)!>)! |!p! A, (A,.E,) | (!>!G,2!<(! E,!<)! | %491
!>(! G,)(5:4:5(F,/4G,/4F,/4G,/4F,/4E,)!>)! |!p! .E/.E/.E/.E/.E/.E/ | .E/.E/.E/.E/.E/.E/ | %494
!p! (!>!G,2!<(! E,!<)! |!>(! G,)(5:4:5(F,/4G,/4F,/4G,/4F,/4E,)!>)! |!p! .E/.E/.E/.E/.E/.E/ | %497
 .E/.E/.E/.E/.E/.E/ |!pp! G,(5:4:5(F,/4G,/4F,/4G,/4F,/4E,) |!pp! .E/.E/.E/.E/.E/.E/ | %500
!pp! G,(5:4:5(F,/4G,/4F,/4G,/4F,/4E,) |!pp! .E/.E/.E/.E/.E/.E/ | .E/.E/.E/.E/.E/.E/ | %503
"_dim." .E/.E/.E/.E/.E/.E/ | .E/.E/.E/.E/.E/.E/ |!ppp! E"^A clarinet" z2 |] %506
[K:F][M:3/4]!p! z2 (.A,2 .A,2) | z2 (.A,2 .A,2) | z2 (.A,2 .A,2) | z2 (.A,2 .A,2) | F2 A2 c2 | %511
 e4- e>f | f6- | f6 | F2 A2 c2 | e2 e7/2 e/ | c4 c2 | z2 (CD EF) | (^FA FA G) z | %519
 z2"_cresc." (_E=F ^FG) | (Ac Ac B) z | z2 (GA Bc) | (^ce dc de) | (gf ef dB) | (!>!A4 G2- | %525
 G)!>(!(_G FE D_D)!>)! |!p! F2 A2 c2 | e4- e>f | f6- | f6 | F2 A2 c2 | e2 e7/2 e/ | c4 c2 | %533
!p! z2 (FG A=B) | (cd =Bd c) z |"_cresc." z2 (^A=B cd) | (ef ^df e) z | z2 (^de ^f^g) | %538
 (a=b c'^g ba) |!f! (c'^g =ba c'a) | (c'a c'a c'(^g) | a)!f!(c =Bc de) |: (f4 B2) | (e4 F2) | %544
 (d4 G2) | (5:4:5(e/f/e/f/e/) .^d z .e z | (f4 B2) | (e4 G2) | (e4 A2) | %549
 (5:4:5(f/g/f/g/f/) .e z .f z | (f4 c2) | (e4 F2) | (d4 G2) | (5:4:5(e/f/e/f/e/) .^d z .e z |1 %554
!<(! (f4 B2) | (^f4 B2) | (g4 B2)!<)! | g!f!(c =Bc de) :|2 (c'4 d2) | (c'4 _e2) || %560
 e z!ff! (GA B=B |!>(! c).B .G.E .D(_D!>)! |!mp!!mp! c2) f2 a2 | b4- b>a | a6- | a6 | c2 f2 a2 | %567
 b2 a7/2 g/ | c'4 f2 | z2!p! (CD EF) | (^FA FA G) z | z2"_cresc." (_E=F ^FG) | (Ac Ac B) z | %573
 z2!mf! (GA Bc) | (^ce dc de) |!f! (gf ef dB) | (!>!A4 G2- | G)!>(!(_G FE D_D)!>)! | %578
!mp!!mp! c2 f2 a2 | b4- b>a | a6- | a6 | c2 f2 a2 | b2 a7/2 g/ | c'4 f2 | z2!p! ((FG A=B)) | %586
 (cd =Bd c) z |"_cresc." z2!mp! (^A=B cd) | (ef ^df e) z | z2 (^de ^f^g) | (a=b c'^g ba) | %591
!f! (c'^g =ba c'a) | (c'a c'a c'(^g) | a)!f!(c =Bc de) |: (f4 B2) | (e4 F2) | (d4 G2) | %597
 (5:4:5(e/f/e/f/e/) .^d z .e z | (f4 B2) | (e4 G2) | (e4 A2) | (5:4:5(f/g/f/g/f/) .e z .f z | %602
 (f4 c2) | (e4 F2) | (d4 G2) | (5:4:5(e/f/e/f/e/) .^d z .e z |1!<(! (f4 B2) | (^f4 B2) | %608
 (g4 B2)!<)! | g!f!(c =Bc de) :|2!<(! (c'4 d2) | (c'4 _e2)!<)! || b z!ff!!ff!!ff! (((c^c de | %613
 f))) z z4 |!p! (gf _ed cB | A) z (.F2 .F2) | (f_e dc BA | G) z (.G2 .G2) | (cd _ef ga | %619
 ef ga bc' | AB cd _e=e | f) z (.B2 .B2) | (gf _ed cB | A) z (.F2 .F2) | (f_e dc BA | %625
 G) z (.B2 .E2) |!mp! (ag fe dB | A) z (.A2 .A2) | A6 |!p! (fe dc BA) |!p! ((gf _ed cB | %631
 A)) z (.F2 .F2) | ((f_e dc BA | G)) z (.G2 .G2) | ((cd _ef ga | ef ga bc' | AB cd _e=e | %637
 f)) z (.B2 .B2) | ((gf _ed cB | A)) z (.F2 .F2) | ((f_e dc BA | G)) z (.B2 .E2) | %642
!mp!!mp! ((ag fe dB | A)) z (.A2 .A2) | z2!mf! d4 | z2 d4 | z2 d4 | z2 d4 | z2 e4 | z2 e4 | z2 d4 | %651
 z2!mp! d4 | z2 d4 | z2 A4 | z2 B4 | z2 B4 | z2 A4 | z2 A4 | z2 A4 | z6 | z2!mf! d4 | z2 d4 | %662
 z2 d4 | z2 d4 | z2 e4 | z2 e4 | z2 d4 | z2!mp! d4 | z2 d4 | z2 d4 | z2 d4 | z2 (B2 d2) | %672
 z2 (A2 f2) | z2 (^c2 e2) | z2 d4- | d z z2 z2 |!p! (gf _ed cB | A) z (.F2 .F2) | (f_e dc BA | %679
 G) z (.G2 .G2) | (cd _ef ga | ef ga bc' | AB cd _e=e | f) z (.B2 .B2) | (gf _ed cB | %685
 A) z (.F2 .F2) | (f_e dc BA | B) z (.F2 .F2) |"_cresc." E6 | F6 |!f! (!>!d2 G2) (!>!d2 | %691
 G2) (!>!d2 G2) |!ff! (!>!d2 G2) (!>!d2 | G2) (!>!d2 G2) | b z b z!pp!!<(! !>!C2- | C2 D4 | %696
 _E4 =E2- | E2 E4!<)! |!mf! c2 f2 a2 | b4- b>a | a6- | a6 | c2 f2 a2 | b2 a7/2 g/ | c'4 f2 | %705
 z2!mf! (CD EF) | (^FA FA G) z | z2"_cresc." (_E=F ^FG) | (Ac Ac B) z | z2!f!!<(! (GA Bc) | %710
 (^ce dc de)!<)! |!ff! (gf ef dB) | (!>!A4 G2- | G)!>(!(_G FE D_D)!>)! |!mf! c2 f2 a2 | b4- b>a | %716
 a6- | a6 | c2 f2 a2 | b2 a7/2 g/ | c'4 f2 | z2!mf! ((FG A=B)) | (cd =Bd c) z | %723
"_cresc." z2 (^A=B cd) | (ef ^df e) z | z2!f! (^de ^f^g) | (a=b c'^g ba) |!ff! (c'^g =ba c'a) | %728
 (c'a c'a c'(^g) | a)!f!(c =Bc de) |: (f4 B2) | (e4 F2) | (d4 G2) | (5:4:5(e/f/e/f/e/) .^d z .e z | %734
 (f4 B2) | (e4 G2) | (e4 A2) | (5:4:5(f/g/f/g/f/) .e z .f z | (f4 c2) | (e4 F2) | (d4 G2) | %741
 (5:4:5(e/f/e/f/e/) .^d z .e z |1!<(! (f4 B2) | (^f4 B2) | (g4 B2)!<)! | g!f!(c =Bc de) :|2 %746
!<(! (c'4 d2) | (c'4 _e2)!<)! || b z!f!!<(! (GA B=B | c)(=B c^c de)!<)! |!ff! c2 f2 a2 | %751
 !>!b4- b>a | a6- | a6 | c2 f2 a2 | !>!g4- g>a | a6 | _a z z4 |!p! F2 (._A2 .A2) | _E2 (._A2 .A2) | %760
 _D2 (._A2 .A2) | _G2 (._A2 .A2) | F2 (._A2 .A2) | _E2 (._A2 .A2) | _D2 (._A2 .A2) | _G2 _A2 z2 | %766
"_cresc." F2 F2 z2 | C2 C2 z2 | _D2 D2 z2 | E2 E2 z2 |!mf! c4 B2- | B2 A4 | _A4 G2- | G2 F2 E2 | %774
!f! c z _a2 c'2 | _d'4- d'>c' | c'6- | c'6 | _e2 _a2 c'2 | b4- b>c' | c'6- | c'6 | %782
!ff! c2 .f.f .f z | ^c2 .f.f .f z | d2 .b.b .b z | (3(ded) .^c z .d z | B2 .d.d .d z | %787
 =B2 .e.e .e z | c2 .a.a .a z | (3(cdc) .=B z .c z | _A2 ._d.d .d z | G2 .d.d .d z | %792
 (G,2 G2)!p! f2- | f2 f4 |"_cresc." f4 f2- | f2 f4 | f4 _e2- | e2 =e4 |!ff! c2 .f.f .f z | %799
 ^c2 .f.f .f z | d2 .b.b .b z | (3(ded) .^c z .d z | B2 .d.d .d z | =B2 .e.e .e z | c2 .a.a .a z | %805
 (3(cdc) .=B z .c z | _A2 ._d.d .d z | G2 .d.d .d z | (G,2 G2)!p! f2- | f2 f4 |"_cresc." f4 f2- | %811
 f2 f4 | f4 _e2- | e2 =e4 |!fff! f z c4 | d4 e z | f z c4 | d4 e z | f z e z d z | f z e z d z | %820
 f z e z d z | f z e z d z | C2 F2 f2 | f2 e7/2 c/ | c2 f2 a2 | c' z z4 |] %826
V:5
!pp! .D z .Gz/(F/ | =E)._E.D.D | (!>!BF) .E.E | (!>!B2 A) z | .D z .Gz/(F/ | =E)._E.D(!>!D | %6
 E).F.G.B | .E.E .D/!pp!.F,/.G,/.A,/ | .D/.D/.C/.B,/ .G/.G/._G/.F/ | .=E/.E/._E/.E/ .D/.D/.^C/.D/ | %10
 .E/.E/.=E/.F/ .G/.G/.^F/.G/ | .G/.G/.^F/.G/ .A/.A/.^G/.A/ | .D/.D/.C/.B,/ .G/.G/._G/.F/ | %13
 .=E/.E/._E/.E/ .D/.D/.^C/.D/ | .E/.E/.F/.F/ .G/.G/.B/.B/ | .F/.F/.G/.F/ B, z |!p! ^F, z G, z | %17
 C z B, z | C z D z | (!>!D2 G,) z |!p! =E, z F, z | B, z A, z | B, z C z | G z C z | (!>!E2 F) z | %25
 (!>!e2 f) z | (!>!E2 F) z | (!>!e2 f) z |!p! (A2 B2) |"_cresc." (=B2 c2) | (^cd) (^d=e) | %31
 (f^f) (ga) | .B/.c/.B/.A/ .G/.A/.G/.F/ | .=E/.F/.E/._E/ .D/.E/.D/._D/ | %34
 .C/._C/.B,/.D/ .E/.D/.E/.=E/ | .F/.=E/.F/.G/ .A/.F/.G/.A/ | .B/.c/.B/.A/ .G/.A/.G/.F/ | %37
 .=E/.F/.E/._E/ .D/.^C/.D/.D/ | .E/.E/"_cresc.".=E/.E/ .F/.F/.^F/.F/ | .G/.G/.E/.E/!f! D z | %40
 z2 z (=B, | C)(D E)(E | =E)(^D E)(^D | =E)(^D E) z |!p!!<(! (A2 B2 | =B2 c2)!<)! | %46
!>(! (=e2 d>)(B | A2 G2)!>)! |!p! d3!<(! (D/=E/) | (G/F/=E/F/) (B/A/^G/A/)!<)! |!p! d3 (D/=E/) | %51
 (G/F/=E/F/) (B/A/^G/A/) |"_cresc." (d/^c/=B/c/) (=e/d/c/d/) | (f/=e/^d/e/) (g/f/e/f/) | %54
!f! (a2- a/g/f/d/ | c) z c z |!p!!<(! z c z c | z c z c!<)! |!>(! z f z f | z ^f z c!>)! | %60
 z2!p! =e!<(! z | z c z f!<)! | z2!p! =e!<(! z | z c z f!<)! | z2!mp! a z |!<(! z f z f!<)! | %66
 z2!mf! a z |!<(! z f z f!<)! | z A!f!=B^c | d=E F^F | GA B^F | GA B^F | GG!pp! =EE | %73
"_cresc." FF ^CC | DD _DD | CC =B,B, |!ff! _B,B, z B, | CC z C | .F/(f/=e/d/ ^c/=B/A/G/) | %79
 (F/=E/D/_D/) =C>C | .F/(f/=e/d/ ^c/=B/A/G/) | (F/=E/D/_D/) =C>C | c2 g2 | c2 g2 | c2 g2 | cc z f | %86
 z c z A | z (G/F/) (B/A/)(d/c/) | fg f z |!pp! .D z .Gz/(F/ | =E)._E.D.D | (!>!BF) .E.E | %92
 (!>!B2 A) z | .D z .Gz/(F/ | =E)._E.D(!>!D | E).F.G.B | .E.E .D/!pp!.F,/.G,/.A,/ | %97
 .D/.D/.C/.B,/ .G/.G/._G/.F/ | .=E/.E/._E/.E/ .D/.D/.^C/.D/ | .E/.E/.=E/.F/ .G/.G/.^F/.G/ | %100
 .G/.G/.^F/.G/ .A/.A/.^G/.A/ | .D/.D/.C/.B,/ .G/.G/._G/.F/ | .=E/.E/._E/.E/ .D/.D/.^C/.D/ | %103
 .E/.E/.F/.F/ .G/.G/.B/.B/ | .F/.F/.G/.F/ B, z |!p! ^F, z G, z | C z B, z | C z D z | %108
 (!>!D2 G,) z |!p! =E, z F, z | B, z A, z | B, z C z | G z C z | (!>!E2 F) z | (!>!e2 f) z | %115
 (!>!E2 F) z | (!>!e2 f) z |!p! (A2 B2) |"_cresc." (=B2 c2) | (^cd) (^d=e) | (f^f) (ga) | %121
 .B/.c/.B/.A/ .G/.A/.G/.F/ | .=E/.F/.E/._E/ .D/.E/.D/._D/ | .C/._C/.B,/.D/ .E/.D/.E/.=E/ | %124
 .F/.=E/.F/.G/ .A/.F/.G/.A/ | .B/.c/.B/.A/ .G/.A/.G/.F/ | .=E/.F/.E/._E/ .D/.^C/.D/.D/ | %127
 .E/.E/"_cresc.".=E/.E/ .F/.F/.^F/.F/ | .G/.G/.E/.E/!f! D z | z2 z (=B, | C)(D E)(B | A)(B A)(B | %132
 A)(B A) z |!p! z B z B | z B z B | z e z e | z =B z c | z2 c z | z d z F | z2 c z | z d z F | %141
!<(! z A z B | z c z d!<)! | z/ (G/B/=e/ g) z | z/ (C/F/A/ c) z |!p!!<(! z F z F | z F z F!<)! | %147
!>(! z B z B | z =B z F!>)! | z2!p! A!<(! z | z F z B!<)! | z2!p! A!<(! z | z F z B!<)! | %153
 z2!mp! d z |!<(! z B z B!<)! | z2!mf! d z |!<(! z B z B!<)! | z d!f!=e^f | gA B=B | cd e=B | %160
 cd e=B | cc!pp! AA |"_cresc." BB ^FF | GG _GG | FF =EE |!ff! _EE z E | FF z F | B z B2 | %168
 dd !>!e2 | f z B2 | dd !>!e2 |!ff! f2 e2 | f2 e2 | f2 e2 | ff z b | z f z d | z DFB | de de | %178
 de de | d z!p! d z | d z z2 |][K:G][M:4/4]!p! B z (3BBB E z E z | B, z B z!mf!!>(! E4!>)! | %183
!p! B z (3BBB E z E z | B, z B z!mf!!>(! E4!>)! |!p! (E6 A,) z | (D6 G,) z | %187
 (C2!<(! F,) z (A,2 G,) z!<)! |!ff! (E4 F) z f z |!p! B z (3BBB E z E z | B, z B z!mf!!>(! E4!>)! | %191
!p! B z (3BBB E z E z | B, z B z!mf!!>(! E4!>)! |!p!"_cresc." A,^G,A,B, C^CD=C | B,^A,B,C D^DE=D | %195
 CB,A,C DCB,D | EGA^A!f! B z ^d z | ^D z (3DDD D z A, z | A, z A, z F,B,^C^D | EFG^G ABcB | %200
 AGFE ^D^CB, z | ^D z (3DDD D z A, z | A, z A, z F, z z2 |{/^D,} E, z{/^A,} B, z =A, z C, z | %204
!<(! D, z F, z!f! D!<)! z (3A,A,A, |!p! B z (3BBB E z E z | B, z B z!mf!!>(! E4!>)! | %207
!p! B z (3BBB E z E z | B, z B z!mf!!>(! E4!>)! |!p! (E6 A,) z | (D6 G,) z | %211
 (C2!<(! F,) z B,2- B, z!<)! |!ff! (E4 F) z f z |!p! B z (3BBB E z E z | B, z B z!mf!!>(! E4!>)! | %215
!p! B z (3BBB E z E z | B, z B z!mf!!>(! E4!>)! |!p!"_cresc." A,^G,A,B, C^CD=C | B,^A,B,C D^DE=D | %219
 CB,A,C DEFD | B,BAD!f! G z!ff! B z |!mf! G,G,G,G, G,G,^G,G, | A,A,F,F, G,G,F,F, |!mf! E4 G2 ^G2 | %224
!<(! A2 F2 GA!<)!!f! G z |!mf! G,G,G,G, G,G,^G,G, | A,A,F,F, G,G,F,F, |!mf! E4 G2 ^G2 | %228
!<(! A2 F2 GA!<)!!f! G z |!f! B z (3BBB E z E z | B, z B z!>(! E4!>)! |!f! B z (3BBB E z E z | %232
 B, z B z!>(! E4!>)! |!mf!!mf! (A,^G,A,B, C^CD)F, | (G,F,G,A, ^A,B,C)E, | %235
!<(! (A,^A,!<(!B,)C ^C^DEG!<)!!<)! |!f!!f! (ABc^c d) z!ff! f z |!f! B z (3BBB E z E z | %238
 B, z B z!>(! E4!>)! |!f! B z (3BBB E z E z | B, z B z!>(! E4!>)! |!mf!"_cresc." A,^G,A,B, C^CD=C | %242
 B,^A,B,C D^DE=D | CB,A,C DCB,D | EGA^A B z!ff! ^d z |!f! ^D z (3DDD D z A, z | %246
 A, z A, z F,!mf!B,^C^D | EFG^G ABcB | AGFE ^D^CB, z |!f! ^D z (3DDD D z A, z | A, z A, z F, z z2 | %251
{/^D,} E, z{/^A,} B, z =A, z C, z |!<(! D, z F, z!ff! D!<)! z (3A,A,A, |!f! B z (3BBB E z E z | %254
 B, z B z!>(! E4!>)! |!f! B z (3BBB E z E z | B, z B z!>(! E4!>)! |!mf!!mf!!mf! A,^G,A,B, C^CDF, | %258
 G,F,G,A, ^A,B,CE, | A,^A,!<(!!<(!B,C ^C^DEG!<)!!<)! |!f!!f!!f! ((ABc^c d)) z!ff! f z | %261
!f! B z (3BBB E z E z | B, z B z!>(! E4!>)! |!f! B z (3BBB E z E z | B, z B z!>(! E4!>)! | %265
!mf!"_cresc." A,^G,A,B, C^CD=C | B,^A,B,C D^DE=D | CB,A,C DEFD | B,BAD!f! G z!ff! B, z |] %269
[K:G][M:2/4]"^pizz."!p! E,B, E,C | E,^C E,=C | E,B, E,C | E,^C E,=C | E,B, E,C | E,C E,D | %275
 E,E E,F | E,E, E,!mf!"^arco"!<(!(E/4D/4C/4B,/4)!<)! | (_B,2 A,2) | (G,2 F,2) | %279
"^pizz." F,!>(!B, F,^C | B,=C B,!>)!"^arco"(B,/4A,/4G,/4F,/4) |!p!"^pizz." E,B, E,C | E,^C E,D | %283
 E,E E,F | E,E, E,!p!"^arco"(G/4F/4E/4D/4) | ^C2- C(F/4E/4^D/4C/4) | B,2- B,(E/4D/4^C/4B,/4) | %287
 A,2- A,!<(!(D/4C/4B,/4A,/4) | G,/ z/ .A!<)!!mf! .GB |!p! (E,F, G,A,) | (B,G, F,)(3.B,/.^C/.B,/ | %291
 (3(!>!A,/G,/).G,/(3.G,/.G,/.G,/ (3.G,/.G,/.G,/(3.G,/.B,/.A,/ | %292
 (3(!>!G,/F,/).F,/(3.F,/.F,/.F,/ z B |!p! (E,F, G,A,) | (B,G, F,)(3.B,/.^C/.B,/ | %295
 (3(!>!A,/G,/).G,/(3.G,/.G,/.G,/ (3.G,/.G,/.G,/(3.G,/.B,/.A,/ | %296
 (3(!>!G,/F,/).F,/(3.F,/.F,/.F,/ z B |!p! (E,F, G,)B | (F,G, A,)B | (G,A, B,)B/(B,/ | %300
 C)B/(C/ ^D) z | z4 | z4 | z4 | z2 z!p! (B,/4A,/4G,/4F,/4 | E,/)"^pizz."E,/B/B/ E/E/c/c/ | %306
 E/E/c/c/ E/E/d/d/ | E/E/e/e/ E/E/f/f/ | E/ z/ E/ z/ E/E/!mf!"^arco"!<(!(e/4d/4c/4B/4)!<)! | %309
 (_B2 A2) | (G2 F2) |"^pizz." F/F/!>(!B/B/ F/F/^c/c/ | B/B/c/c/ B/B/!>)!"^arco"(B/4A/4G/4F/4) | %313
!p!"^pizz." E/E/B/B/ E/E/c/c/ | E/E/^c/c/ E/E/d/d/ | E/E/e/e/ E/E/f/f/ | %316
 E/ z/ E/ z/ E/E/"^arco"!p!(g/4f/4e/4d/4) | ^c2- c(f/4e/4^d/4c/4) | B2- B(e/4d/4^c/4B/4) | %319
 A2- A!<(!(d/4c/4B/4A/4) | G/ z/"^pizz." A!<)!!mf! GE |] %321
[K:G][M:2/4]!f!!f!!f!"_arco" !arpeggio![B,Gd] z z2 | .A,.B, C z |!f!!f!!f! !arpeggio![G,DB] z z2 | %324
!p! .E,.F, .G,(G/B/ | .F)(F/A/ .E)(E/G/ | .D)(D/F/ .F)(A/c/ |!<(! .G)(G/B/ .E)(E/G/ | %328
 .F).E!<)! F z |!f!!f!!f! !arpeggio![B,Gd] z z2 | .A,.B, C z |!f!!f!!f! !arpeggio![G,DB] z z2 | %332
!p! .E,.F, .G,(G/B/ | .F)(F/A/ .E)(E/G/ | .D)(D/F/ .F)(A/c/ |!<(! .G)(G/B/ .F)(F/A/ | %336
 .B,).A,!<)! .B, z |!ff! !arpeggio![B,Gd] z z2 | .A,.B, C z |!ff! !arpeggio![G,DB] z z2 | %340
!mf! .E,.F, .G,(G/B/ | .F)(F/A/ .E)(E/G/ | .D)(D/F/ .F)(A/c/ |!<(! .G)(G/B/ .E)(E/G/ | %344
 .F).E!<)!!ff! F z |!ff! !arpeggio![B,Gd] z z2 | .A,.B, C z |!ff! !arpeggio![G,DB] z z2 | %348
!mf! .E,.F, .G,(G/B/ | .F)(F/A/ .E)(E/G/ | .D)(D/F/ .F)(A/c/ |!<(! .G)(G/B/ .F)(F/A/ | %352
 .B,).A,!<)!!ff! .B, z |!f! .D(D/^C/ .D).=C | !>!B,2 !>!E,2 | .A,(A,/^G,/ .A,).=G, | %356
 !>!F,2 !>!B,2 | .E,E,/D,/ .F,F,/E,/ | .G,G,/F,/ .^G,G,/E,/ | %359
!<(! .A,/.B,/.^C/.D/ .E/.^D/.E/.^E/!<)! |!ff! FF/D/ !>!A,2 |!f! .D(D/^C/ .D).=C | !>!B,2 !>!E,2 | %363
 .A,(A,/^G,/ .A,).=G, | !>!F,2 !>!B,2 | .E,E,/D,/ .F,F,/E,/ | .G,G,/F,/ .^G,G,/E,/ | %367
 .A,A,/=G,/ .B,B,/A,/ | .^CC/B,/ D!ff!D | =CC- C(^C/^B,/ | .^C)(D/C/ .D)!ff!D | =CC- C(^C/^B,/ | %372
 .^C)(D/C/ .D)!ff!D | =CC- C!ff!D | =CC- C!ff!D | =CD =CD | =CD f(3(D/E/F/) | %377
!ff! !arpeggio![B,Gd] z z2 | .A,.B, C z |!ff! !arpeggio![G,DB] z z2 | .E,.F, .G,((G/B/ | %381
 .F))((F/A/ .E))((E/G/ | .D))((D/F/ .F))((A/c/ |!<(!!<(! .G))((G/B/ .E))((E/G/ | %384
 .F)).E!<)!!<)!!ff! F(3(D/E/F/) |!ff! !arpeggio![B,Gd] z z2 | .A,.B, C z | %387
!ff! !arpeggio![G,DB] z z2 | .E,.F, .G,(G/B/ | .F)(F/A/ .E)(E/G/ | .D)(D/F/ .F)(A/c/ | %391
"^stringendo" .G)(G/B/ .F)(F/A/ | .E)(E/G/ .G)(G/B/ |!fff! .F)(F/A/ .E)(E/G/ | .D)(D/F/ .F)(A/c/ | %395
 .G)(G/B/ .F)(F/A/ | .E)(E/G/ .G)(G/B/ | .A)(F/A/ .F)(F/c/ | .G)(G/B/ .E)(E/G/ | %399
 .F)((F/A/ .F))(F/c/ | .G)(G/B/ .E)(E/G/ |"^Presstissimo" .F)(F/A/ .E)(E/G/ | .F)(F/A/ .E)(E/G/ | %403
 .F)(F/A/ .E)(E/G/ | .F)F G z |][K:Bb][M:3/8]!p! (D,/.D/).D/.D,/(D,/.D/) | %406
 (D,/.D/).D/.D,/(D,/.D/) | (D,/.D/).D/.D,/(D,/.D/) | (D,/.D/).D/.D,/(D,/.D/) |!p! (!>!A,2 B,) | %410
 (!>!A,2 B,) | (!>!A,2 B,- | B,3) | (!>!A,2 B,) | (!>!A,2 B,) | (!>!A,2 B,- | B,3-) | B,3 | %418
!p! (D,/.D/).D/.D,/(D,/.D/) | (D,/.D/).D/.D,/(D,/.D/) | (D,/.D/).D/.D,/(D,/.D/) | %421
 (D,/.D/).D/.D,/(D,/.D/) | (D,/.D/).D/.D,/(D,/.D/) | (D,/.D/).D/.D,/(D,/.D/) | %424
 (D,/.D/).D/.D,/(D,/.D/) | (D,/.D/).D/.D,/(D,/.D/) | (D,/.D/).D/.D,/(D,/.D/) | %427
 (D,/.D/).D/.D,/(D,/.D/) | (D,/.D/).D/.D,/(D,/.D/) | (D,/.D/).D/.D,/(D,/.D/) | %430
 (D,/.D/).D/.D,/(D,/.D/) | (D,/.D/).D/.D,/(D,/.D/) | (D,/.D/).D/.D,/(D,/.D/) | %433
 (D,/.D/).D/.D,/(D,/.D/) | (D,/.D/).D/.D,/(D,/.D/) | (D,/.D/).D/.D,/(D,/.D/) | %436
 (D,/.D/).D/.D,/(D,/.D/) |!p!!p! ((!>!F2 D)) | ((!>!F2 D)) | ((F(5:4:5E/4F/4E/4F/4E/4D- | D3)) | %441
 ((!>!F2 D)) | ((!>!F2 D)) | ((F(5:4:5E/4F/4E/4F/4E/4D- | D3-)) | D3 |!pp!!<(! (D2 C)!<)! | =B,3- | %448
"_cresc." B,3- | B, C2- | C!mf!(=B,C | _D) !>!C2- | C(_DC) |!>(! G3!>)! | (D2 ^C) |!<(! B,3- | %456
 B,3!<)! |!mf! A, B,2- | B,"_dim."(A,B,) | ^C =C2- | C(^C=C) |!p! D3- |!>(! D3-!>)! |!pp! D3- | %464
 D3 |!p! (!>!A,2 B,) | (!>!A,2 B,) | (!>!A,2 B,- | B,3) | (!>!A,2 B,) | (!>!A,2 B,) | (!>!A,2 B,- | %472
 B,3-) | B,3 |!p! (B,2 C | .D) D2 | (D>CD | .C)!p!!<(! !>!B,2 | (C2 D!<)! | %479
!mf! B,)!>(!(5:4:5(A,/4B,/4A,/4B,/4A,/4G,- | G,3-)!>)! |!p! G,!mp! (A,.G,) |!mf!!<(! d3- | %483
 d2!<)!!f! (^c/4d/4c/4A/4) | =c3- | c2 (B/4c/4B/4F/4) |!>(! A3-!>)! |!p! A z2 |!p! (A.G) (A, | %489
.G,) (A,.G,) | .D,/.D,/.D,/.D,/.D,/.D,/ | .C,/.C,/.C,/.C,/.D,/.D,/ |!p! G3- | G3 | %494
 .D,/.D,/.D,/.D,/.D,/.D,/ | .C,/.C,/.C,/.C,/.D,/.D,/ |!p! G3- | G3 | .C,/.C,/.C,/.C,/.D,/.D,/ | %499
!pp! G3 | .C,/.C,/.C,/.C,/.D,/.D,/ |!pp! G3- | G3- |"_dim." G3- | G3 |!ppp! G z2 |] %506
[K:D][M:3/4]!p! D,2 (.[D,A,]2 .[D,A,]2) | D,2 (.[D,A,]2 .[D,A,]2) | D,2 (.[D,A,]2 .[D,A,]2) | %509
 D,2 (.[D,A,]2 .[D,A,]2) | D,2 (.[D,A,]2 .[D,A,]2) | D,2 (.[D,_B,]2 .[D,B,]2) | %512
 D,2 (.[D,A,]2 .[D,A,]2) | D,2 (.[D,A,]2 .[D,A,]2) | D,2 (.[D,A,]2 .[D,A,]2) | %515
 D,2 (.[D,_B,]2 .[D,B,]2) | D,2 (.[D,A,]2 .[D,A,]2) | D,2 (.F,2 .F,2) | C,2 (.E,2 .E,2) | %519
 =C,2"_cresc." (.[E,G,]2 .[E,G,]2) | B,2 (.[E,G,]2 .[E,G,]2) | G,2 (.[E,G,]2 .[E,G,]2) | %522
 E,2 (.[G,E]2 .[G,E]2) |!mp! B,2 (.[G,E]2 .[G,E]2) | B,2 (.^G,2 .G,2) | A, z z4 | %526
!p! D,2 (.[D,A,]2 .[D,A,]2) | D,2 (.[D,_B,]2 .[D,B,]2) | D,2 (.[D,A,]2 .[D,A,]2) | %529
 D,2 (.[D,A,]2 .[D,A,]2) | D,2 (.[D,A,]2 .[D,A,]2) | D,2 (.[D,_B,]2 .[D,B,]2) | %532
 D,2 (.[D,A,]2 .[D,A,]2) |!p! D,2 (.A,2 .A,2) |"_cresc." C,2 (.A,2 .A,2) | B,2 (.B,2 .B,2) | %536
 A,2 (.A,2 .A,2) | ^G,2 (.[^E,B,]2 .[E,B,]2) |!mf! F,4 E,2- | E,2 D,4 | C,6 | %541
 F,!f!!f!((A, B,C DE)) |: (F4 C2) | (E4 B,2) | (D4 G,2) | .A,.A, .A, z .A, z | (G4 D2) | (F4 C2) | %548
 (E4 A,2) | .F,.F, .F, z .F, z | (F4 C2) | (E4 B,2) | (D4 G,2) | .A,.A, .A, z .A, z |1!<(! ^A,6 | %555
 B,6 | =C6!<)! | A!f!(A, B,C DE) :|2!<(! F,6 | =F,6!<)! || E, z z2!ff! E, z | %561
!>(! A,C G,E, (C,2!>)! |!mp! D,2) (.[D,A,]2 .[D,A,]2) | D,2 (.[D,_B,]2 .[D,B,]2) | %564
 D,2 (.[D,A,]2 .[D,A,]2) | D,2 (.[D,A,]2 .[D,A,]2) | D,2 (.[D,A,]2 .[D,A,]2) | %567
 D,2 (.[D,_B,]2 .[D,B,]2) | D,2 (.[D,A,]2 .[D,A,]2) | D,2 (.F,2 .F,2) | C,2 (.E,2 .E,2) | %571
 =C,2"_cresc." (.[E,G,]2 .[E,G,]2) | B,2 (.[E,G,]2 .[E,G,]2) | G,2 (.[E,G,]2 .[E,G,]2) | %574
 E,2 (.[G,E]2 .[G,E]2) |!mp! B,2 (.[G,E]2 .[G,E]2) | B,2 (^G,2 .G,2) | A, z z4 | %578
!mp! D,2 (.[D,A,]2 .[D,A,]2) | D,2 (.[D,_B,]2 .[D,B,]2) | D,2 (.[D,A,]2 .[D,A,]2) | %581
 D,2 (.[D,A,]2 .[D,A,]2) | D,2 (.[D,A,]2 .[D,A,]2) | D,2 (.[D,_B,]2 .[D,B,]2) | %584
 D,2 (.[D,A,]2 .[D,A,]2) |!p! D,2 ((.A,2 .A,2)) |"_cresc." C,2 (.A,2 .A,2) | B,2 (.B,2 .B,2) | %588
 A,2 (.A,2 .A,2) | ^G,2 (.[^E,B,]2 .[E,B,]2) |!mf! F,4 E,2- | E,2 D,4 | C,6 | %593
 F,!f!!f!((A, B,C DE)) |: (F4 C2) | (E4 B,2) | (D4 G,2) | .A,.A, .A, z .A, z | (G4 D2) | (F4 C2) | %600
 (E4 A,2) | .F,.F, .F, z .F, z | (F4 C2) | (E4 B,2) | (D4 G,2) | .A,.A, .A, z .A, z |1!<(! ^A,6 | %607
 B,6 | =C6!<)! | A!f!(A, B,C DE) :|2!<(! F,6 | =F,6!<)! || E, z z2!ff! A, z | D z z4 | %614
 z2!p! (.E2 .E2) | (AG FE D=C | B,) z (.D2 .D2) | (GF EF ED | =C) z (.E2 .E2) | z2 (.E2 .E2) | %620
 z2 (.F2 .F2) | (GF GA GF | E) z (.A2 .E2) | (AG FE D=C | B,) z (.D2 .D2) |!mp! (GF ED ^CB, | %626
 B) z (.F2 .F2) |!mf! (F,G, ^G,A, B,^A, | B,6) | z6 | z2!p! (.E2 .E2) | ((AG FE D=C | %632
 B,)) z (.D2 .D2) | ((GF EF ED | =C)) z (.E2 .E2) | z2 (.E2 .E2) | z2 (.F2 .F2) | ((GF GA GF | %638
 E)) z (.A2 .E2) | ((AG FE D=C | B,)) z (.D2 .D2) |!mp!!mp! ((GF ED ^CB, | B)) z (.F2 .F2) | %643
!mf! (F,G, ^G,A, B,^A,) |!f! F6 | G6 | F6 |!<(!{EF} (E2 ^D2 E2)!<)! | (!>!G4 F2) | (!>!F4 E2) | %650
!>(! (!>!E4 D2)!>)! |!mf!{DE} (D2 C2 D2) | (!>!F4 B,2) |{B,C} (B,2 ^A,2 B,2) | (!>!D4 G,2) | %655
!<(! (G,2 B,2 D2)!<)! |!>(! (D4 ^A,2)!>)! |!<(! (F,2 ^A,2 D2)!<)! |!>(! (C4 B,2-)!>)! | %659
 B,(^A, B,C DE) |!f! F6 | G6 | F6 |!<(!{EF} (E2 ^D2 E2)!<)! | (!>!G4 F2) | (!>!F4 E2) | %666
!>(! (!>!E4 D2)!>)! |!mf!!<(!{DE} (D2 C2 D2)!<)! |!ff!!>(! (B4 B,2)!>)! |!<(! (B,2 D2 F2)!<)! | %670
!ff!!>(! (B4 B,2)!>)! |!<(! (B,2 D2 F2)!<)! |!ff! (B4 F2) | (G2 F3 C) |"_dim." (E4 D2-) | D z z4 | %676
 z2!p! (.E2 .E2) | (AG FE D=C | B,) z (.D2 .D2) | (GF EF ED | =C) z (.E2 .E2) | z2 (.E2 .E2) | %682
 z2 (.F2 .F2) | (GF GA GF | E) z (.A2 .E2) | (AG FE D=C | B,) z (.D2 .D2) | (d=c BA GF) | %688
"_cresc." A,6 | B,6 |!f! A,4 B,2- | B,2 C4 |!ff! A,4 B,2- | B,2 C4 | c z c z!pp!!<(! (!>!A,2 | %695
 C,2) (!>!A,2 D,2) | (!>!A,2 ^D,2) (!>!A,2 | E,2) (!>!A,2 =F,2)!<)! |!mf! D,2 (.[D,A,]2 .[D,A,]2) | %699
 D,2 (.[D,_B,]2 .[D,B,]2) | D,2 (.[D,A,]2 .[D,A,]2) | D,2 (.[D,A,]2 .[D,A,]2) | %702
 D,2 (.[D,A,]2 .[D,A,]2) | D,2 (.[D,_B,]2 .[D,B,]2) | D,2 (.[D,A,]2 .[D,A,]2) | D,2 (.F,2 .F,2) | %706
 C,2 (.E,2 .E,2) | =C,2"_cresc." (.[E,G,]2 .[E,G,]2) | B,2 (.[E,G,]2 .[E,G,]2) | %709
 G,2 (.[E,G,]2 .[E,G,]2) | E,2 (.[G,E]2 .[G,E]2) |!ff! B,2 (.[G,E]2 .[G,E]2) | B,2 (^G,2 .G,2) | %713
 A, z z4 |!mf! D,2 (.[D,A,]2 .[D,A,]2) | D,2 (.[D,_B,]2 .[D,B,]2) | D,2 (.[D,A,]2 .[D,A,]2) | %717
 D,2 (.[D,A,]2 .[D,A,]2) | D,2 (.[D,A,]2 .[D,A,]2) | D,2 (.[D,_B,]2 .[D,B,]2) | %720
 D,2 (.[D,A,]2 .[D,A,]2) |!mf! D,2 ((.A,2 .A,2)) |"_cresc." C,2 (.A,2 .A,2) | B,2 (.B,2 .B,2) | %724
 A,2 (.A,2 .A,2) | ^G,2 (.[^E,B,]2 .[E,B,]2) |!f! F,4 E,2- | E,2 D,4 | C,6 | %729
 F,!f!!f!((A, B,C DE)) |: (F4 C2) | (E4 B,2) | (D4 G,2) | .A,.A, .A, z .A, z | (G4 D2) | (F4 C2) | %736
 (E4 A,2) | .F,.F, .F, z .F, z | (F4 C2) | (E4 B,2) | (D4 G,2) | .A,.A, .A, z .A, z |1!<(! ^A,6 | %743
 B,6 | =C6!<)! | A!f!(A, B,C DE) :|2!<(! F,6 | =F,6!<)! || E, z!f!!<(! (E,F, G,^G, | %749
 A,)(^G, A,^A, B,C)!<)! |!ff! F2 F2 d2 | !>!e4- e>d | d6- | d6 | F2 F2 d2 | !>!c4- c>d | d6 | %757
 =c z!p! (=FG ^GA) | (_B=c Ac B) z |!<(! z (^G A_B =c^c)!<)! |!>(! (d_e ce d) z!>)! | %761
 z!p! (E =FG ^GA) | (_B=c Ac B) z |!<(! z (^G A_B =c^c)!<)! |!>(! (d_e ce d) z!>)! | %765
!pp! z (E =FG ^GA) |"_cresc." (_B=c Ac Bd) | (=cd Bd c_e) | (d_e ce d=f) | (e=f ^df eg) | %770
!mf! (^FG FA) (GA | G_B) (AB A=C) | (B,=C B,D) (^CD | CE) (D=F EG |!f! =F) z =c2 =f2 | g4- g>=f | %776
 =f6- | f6 | A2 =c2 =f2 | e4- e>=f | =f6 | (cA) .^G.A .B.c |!ff! (d4 A2) | (d4 ^A2) | (cB ^AB GE) | %785
 G z G z G z |!ff! (c4 G2) | (c4 ^G2) | (BA ^GA FD) | F z F z F z |!ff! (_B4 =F2) | (^G4 E2) | %792
 [C,A,]4!p! [F,A,]2- | [F,A,]2 G,4 |"_cresc." [=F,^G,]4 [^F,A,]2- | [F,A,]2 [G,_B,]4 | %796
 [^G,=B,]4 A,2- | A,2 [=G,A,]4 |!ff! (d4 A2) | (d4 ^A2) | (cB ^AB GE) | G z G z G z |!ff! (c4 G2) | %803
 (c4 ^G2) | (BA ^GA FD) | F z F z F z |!ff! (_B4 =F2) | (^G4 E2) | [C,A,]4!p! [F,A,]2- | %809
 [F,A,]2 G,4 |"_cresc." [=F,^G,]4 [^F,A,]2- | [F,A,]2 [G,_B,]4 | [^G,=B,]4 A,2- | A,2 [=G,A,]4 | %814
!fff! [F,A,] z F,4 | G,4 A, z | [F,A,] z F,4 | G,4 A, z | D, z F, z G, z | D, z F, z G, z | %820
 D, z F, z G, z | D, z F, z G, z | D,2 D,2 D,2 | B,2 A,7/2 D,/ | D,2 A,2 F,2 | D, z z4 |] %826

